;FLAVOR:Marlin
;TIME:2280
;Filament used: 3.4643m
;Layer height: 0.4
;MINX:77.3
;MINY:75.8
;MINZ:0.15
;MAXX:172.7
;MAXY:134.2
;MAXZ:16.95
;Generated with Cura_SteamEngine 4.3.0
M82 ;absolute extrusion mode
G21 ; set units to millimeters
G90 ; use absolute positioning
M82 ; absolute extrusion mode
M104 S215 ; set extruder temp
M140 S60 ; set bed temp
M190 S60 ; wait for bed temp
M109 S215 ; wait for extruder temp
G28 W ; home all without mesh bed level
G80 ; mesh bed leveling
G92 E0.0 ; reset extruder distance position
G1 Y-3.0 F1000.0 ; go outside print area
G1 X60.0 E9.0 F1000.0 ; intro line
G1 X100.0 E21.5 F1000.0 ; intro line
G92 E0.0 ; reset extruder distance position
G92 E0
G92 E0
G1 F2100 E-0.8
;LAYER_COUNT:43
;LAYER:0
M107
G0 F3600 X78.289 Y76.704 Z0.15
;TYPE:SKIRT
G1 F2100 E0
G1 F1800 X78.68 Y76.383 E0.01262
G1 X79.117 Y76.128 E0.02524
G1 X79.588 Y75.944 E0.03785
G1 X80.082 Y75.838 E0.05046
G1 X80.419 Y75.81 E0.05889
G1 X80.74 Y75.801 E0.0669
G1 X80.83 Y75.8 E0.06915
G1 X168.839 Y75.8 E2.26454
G1 X169.537 Y75.81 E2.28196
G1 X170.04 Y75.857 E2.29456
G1 X170.53 Y75.983 E2.30718
G1 X170.994 Y76.185 E2.3198
G1 X171.42 Y76.457 E2.33241
G1 X171.798 Y76.792 E2.34501
G1 X172.118 Y77.183 E2.35761
G1 X172.373 Y77.62 E2.37023
G1 X172.556 Y78.091 E2.38284
G1 X172.663 Y78.585 E2.39545
G1 X172.69 Y78.92 E2.40383
G1 X172.699 Y79.24 E2.41182
G1 X172.7 Y79.33 E2.41406
G1 X172.7 Y130.304 E3.68561
G1 X172.691 Y131.031 E3.70375
G1 X172.645 Y131.534 E3.71635
G1 X172.52 Y132.024 E3.72896
G1 X172.319 Y132.488 E3.74158
G1 X172.048 Y132.915 E3.75419
G1 X171.713 Y133.294 E3.76681
G1 X171.323 Y133.615 E3.77941
G1 X170.887 Y133.871 E3.79202
G1 X170.416 Y134.054 E3.80463
G1 X169.922 Y134.162 E3.81724
G1 X169.581 Y134.19 E3.82578
G1 X169.26 Y134.199 E3.83379
G1 X169.17 Y134.2 E3.83603
G1 X81.166 Y134.2 E6.0313
G1 X80.468 Y134.191 E6.04872
G1 X79.964 Y134.144 E6.06134
G1 X79.474 Y134.019 E6.07396
G1 X79.01 Y133.818 E6.08657
G1 X78.584 Y133.547 E6.09917
G1 X78.205 Y133.212 E6.11178
G1 X77.884 Y132.821 E6.1244
G1 X77.629 Y132.385 E6.137
G1 X77.445 Y131.914 E6.14962
G1 X77.338 Y131.42 E6.16223
G1 X77.31 Y131.077 E6.17081
G1 X77.301 Y130.744 E6.17912
G1 X77.3 Y130.658 E6.18127
G1 X77.3 Y79.631 E7.45414
G1 X77.309 Y78.966 E7.47073
G1 X77.356 Y78.462 E7.48336
G1 X77.482 Y77.973 E7.49595
G1 X77.683 Y77.509 E7.50857
G1 X77.954 Y77.082 E7.52118
G1 X78.289 Y76.704 E7.53378
G1 F2100 E6.73378
;MESH:TX2Mount.STL
G0 F3600 X81.114 Y78.335
G0 X81.114 Y79.614
G0 X83.293 Y83.922
G0 X83.392 Y83.925
;TYPE:WALL-INNER
G1 F2100 E7.53378
G1 F1800 X83.489 Y84.63 E7.55153
G1 X83.812 Y85.263 E7.56926
G1 X84.329 Y85.754 E7.58705
G1 X84.982 Y86.045 E7.60488
G1 X85.693 Y86.099 E7.62267
G1 X86.38 Y85.915 E7.64041
G1 X86.968 Y85.513 E7.65818
G1 X87.389 Y84.936 E7.67599
G1 X87.592 Y84.254 E7.69374
G1 X87.557 Y83.543 E7.7115
G1 X87.287 Y82.883 E7.72929
G1 X86.813 Y82.351 E7.74706
G1 X86.213 Y82.022 E7.76413
G1 X85.818 Y81.921 E7.7743
G1 X85.132 Y81.924 E7.79142
G1 X84.46 Y82.165 E7.80922
G1 X83.909 Y82.618 E7.82702
G1 X83.539 Y83.226 E7.84477
G1 X83.392 Y83.925 E7.86259
G0 F3600 X83.293 Y83.922
G0 X83.78 Y85.286
G0 X93.293 Y92.922
G0 X93.392 Y92.925
G1 F1800 X93.489 Y93.63 E7.88034
G1 X93.812 Y94.263 E7.89807
G1 X94.329 Y94.754 E7.91586
G1 X94.982 Y95.045 E7.93369
G1 X95.693 Y95.099 E7.95148
G1 X96.38 Y94.915 E7.96922
G1 X96.968 Y94.513 E7.98698
G1 X97.389 Y93.936 E8.0048
G1 X97.592 Y93.254 E8.02255
G1 X97.557 Y92.543 E8.04031
G1 X97.287 Y91.883 E8.0581
G1 X96.813 Y91.351 E8.07587
G1 X96.213 Y91.022 E8.09294
G1 X95.818 Y90.921 E8.10311
G1 X95.132 Y90.924 E8.12022
G1 X94.46 Y91.165 E8.13803
G1 X93.909 Y91.618 E8.15583
G1 X93.539 Y92.226 E8.17358
G1 X93.392 Y92.925 E8.1914
G0 F3600 X93.293 Y92.922
G0 X93.293 Y116.922
G0 X93.392 Y116.925
G1 F1800 X93.489 Y117.63 E8.20915
G1 X93.812 Y118.263 E8.22688
G1 X94.329 Y118.754 E8.24466
G1 X94.982 Y119.045 E8.2625
G1 X95.693 Y119.099 E8.28028
G1 X96.38 Y118.915 E8.29803
G1 X96.968 Y118.513 E8.31579
G1 X97.389 Y117.936 E8.33361
G1 X97.592 Y117.254 E8.35136
G1 X97.557 Y116.543 E8.36912
G1 X97.287 Y115.883 E8.38691
G1 X96.813 Y115.351 E8.40468
G1 X96.213 Y115.022 E8.42175
G1 X95.818 Y114.921 E8.43192
G1 X95.132 Y114.924 E8.44903
G1 X94.46 Y115.165 E8.46684
G1 X93.909 Y115.618 E8.48464
G1 X93.539 Y116.226 E8.50239
G1 X93.392 Y116.925 E8.52021
G0 F3600 X93.293 Y116.922
G0 X83.879 Y124.592
G0 X83.293 Y125.922
G0 X83.392 Y125.925
G1 F1800 X83.489 Y126.63 E8.53796
G1 X83.812 Y127.263 E8.55569
G1 X84.329 Y127.754 E8.57347
G1 X84.982 Y128.045 E8.59131
G1 X85.693 Y128.099 E8.60909
G1 X86.38 Y127.915 E8.62683
G1 X86.968 Y127.513 E8.6446
G1 X87.389 Y126.936 E8.66242
G1 X87.592 Y126.254 E8.68017
G1 X87.557 Y125.543 E8.69793
G1 X87.287 Y124.883 E8.71572
G1 X86.813 Y124.351 E8.73349
G1 X86.213 Y124.022 E8.75056
G1 X85.818 Y123.921 E8.76073
G1 X85.132 Y123.924 E8.77784
G1 X84.46 Y124.165 E8.79565
G1 X83.909 Y124.618 E8.81344
G1 X83.539 Y125.226 E8.8312
G1 X83.392 Y125.925 E8.84902
G0 F3600 X83.293 Y125.922
G0 X81.17 Y130.33
G0 X81.1 Y130.4
G1 F1800 X81.1 Y79.6 E10.11623
G1 X168.9 Y79.6 E12.30641
G1 X168.9 Y130.4 E13.57362
G1 X81.1 Y130.4 E15.7638
G0 F3600 X81.17 Y130.33
G0 X152.293 Y104.922
G0 X152.392 Y104.925
G1 F1800 X152.489 Y105.63 E15.78155
G1 X152.812 Y106.263 E15.79928
G1 X153.329 Y106.754 E15.81706
G1 X153.982 Y107.045 E15.8349
G1 X154.693 Y107.099 E15.85268
G1 X155.38 Y106.915 E15.87042
G1 X155.968 Y106.513 E15.88819
G1 X156.389 Y105.936 E15.90601
G1 X156.592 Y105.254 E15.92376
G1 X156.557 Y104.543 E15.94152
G1 X156.287 Y103.883 E15.95931
G1 X155.813 Y103.351 E15.97708
G1 X155.213 Y103.022 E15.99415
G1 X154.818 Y102.921 E16.00432
G1 X154.132 Y102.924 E16.02143
G1 X153.46 Y103.165 E16.03924
G1 X152.909 Y103.618 E16.05703
G1 X152.539 Y104.226 E16.07479
G1 X152.392 Y104.925 E16.09261
G0 F3600 X152.293 Y104.922
G0 X162.293 Y125.922
G0 X162.392 Y125.925
G1 F1800 X162.489 Y126.63 E16.11036
G1 X162.812 Y127.263 E16.12809
G1 X163.329 Y127.754 E16.14587
G1 X163.982 Y128.045 E16.16371
G1 X164.693 Y128.099 E16.18149
G1 X165.38 Y127.915 E16.19923
G1 X165.968 Y127.513 E16.217
G1 X166.389 Y126.936 E16.23482
G1 X166.592 Y126.254 E16.25257
G1 X166.557 Y125.543 E16.27033
G1 X166.287 Y124.883 E16.28811
G1 X165.813 Y124.351 E16.30589
G1 X165.213 Y124.022 E16.32296
G1 X164.818 Y123.921 E16.33313
G1 X164.132 Y123.924 E16.35024
G1 X163.46 Y124.165 E16.36805
G1 X162.909 Y124.618 E16.38584
G1 X162.539 Y125.226 E16.4036
G1 X162.392 Y125.925 E16.42142
G0 F3600 X162.293 Y125.922
G0 X162.293 Y83.922
G0 X162.392 Y83.925
G1 F1800 X162.489 Y84.63 E16.43917
G1 X162.812 Y85.263 E16.45689
G1 X163.329 Y85.754 E16.47468
G1 X163.982 Y86.045 E16.49251
G1 X164.693 Y86.099 E16.5103
G1 X165.38 Y85.915 E16.52804
G1 X165.968 Y85.513 E16.54581
G1 X166.389 Y84.936 E16.56363
G1 X166.592 Y84.254 E16.58138
G1 X166.557 Y83.543 E16.59914
G1 X166.287 Y82.883 E16.61692
G1 X165.813 Y82.351 E16.6347
G1 X165.213 Y82.022 E16.65177
G1 X164.818 Y81.921 E16.66194
G1 X164.132 Y81.924 E16.67905
G1 X163.46 Y82.165 E16.69686
G1 X162.909 Y82.618 E16.71465
G1 X162.539 Y83.226 E16.73241
G1 X162.392 Y83.925 E16.75022
G0 F3600 X162.293 Y83.922
G0 X162.807 Y82.71
G0 X163.492 Y82.048
G0 X163.66 Y82.518
;TYPE:WALL-OUTER
G1 F1800 X163.215 Y82.884 E16.7646
G1 X162.916 Y83.375 E16.77894
G1 X162.798 Y83.939 E16.79331
G1 X162.876 Y84.509 E16.80766
G1 X163.137 Y85.02 E16.82198
G1 X163.555 Y85.417 E16.83636
G1 X164.081 Y85.651 E16.85072
G1 X164.655 Y85.695 E16.86508
G1 X165.211 Y85.546 E16.87944
G1 X165.685 Y85.222 E16.89376
G1 X166.025 Y84.756 E16.90815
G1 X166.189 Y84.205 E16.92249
G1 X166.161 Y83.631 E16.93682
G1 X165.943 Y83.098 E16.95119
G1 X165.56 Y82.669 E16.96553
G1 X165.065 Y82.397 E16.97962
G1 X164.769 Y82.321 E16.98725
G1 X164.202 Y82.324 E17.00139
G1 X163.66 Y82.518 E17.01575
G0 F3600 X163.506 Y82.645
G0 X163.19 Y82.258
G0 X162.666 Y82.943
G0 X153.492 Y103.048
G0 X153.66 Y103.518
G1 F1800 X153.215 Y103.884 E17.03012
G1 X152.916 Y104.375 E17.04446
G1 X152.798 Y104.939 E17.05884
G1 X152.876 Y105.509 E17.07319
G1 X153.137 Y106.02 E17.0875
G1 X153.555 Y106.417 E17.10188
G1 X154.081 Y106.651 E17.11624
G1 X154.655 Y106.695 E17.1306
G1 X155.211 Y106.546 E17.14496
G1 X155.685 Y106.222 E17.15929
G1 X156.025 Y105.756 E17.17368
G1 X156.189 Y105.205 E17.18802
G1 X156.161 Y104.631 E17.20235
G1 X155.943 Y104.098 E17.21672
G1 X155.56 Y103.669 E17.23106
G1 X155.065 Y103.397 E17.24515
G1 X154.769 Y103.321 E17.25277
G1 X154.202 Y103.324 E17.26692
G1 X153.66 Y103.518 E17.28128
G0 F3600 X153.506 Y103.645
G0 X153.19 Y103.258
G0 X152.502 Y104.212
G0 X152.451 Y105.641
G0 X163.492 Y124.048
G0 X163.66 Y124.518
G1 F1800 X163.215 Y124.884 E17.29565
G1 X162.916 Y125.375 E17.30999
G1 X162.798 Y125.939 E17.32437
G1 X162.876 Y126.509 E17.33872
G1 X163.137 Y127.02 E17.35303
G1 X163.555 Y127.417 E17.36741
G1 X164.081 Y127.651 E17.38177
G1 X164.655 Y127.695 E17.39613
G1 X165.211 Y127.546 E17.41049
G1 X165.685 Y127.222 E17.42481
G1 X166.025 Y126.756 E17.4392
G1 X166.189 Y126.205 E17.45354
G1 X166.161 Y125.631 E17.46788
G1 X165.943 Y125.098 E17.48224
G1 X165.56 Y124.669 E17.49659
G1 X165.065 Y124.397 E17.51068
G1 X164.769 Y124.321 E17.5183
G1 X164.202 Y124.324 E17.53245
G1 X163.66 Y124.518 E17.54681
G0 F3600 X163.506 Y124.645
G0 X163.19 Y124.258
G0 X95.822 Y114.882
G0 X94.492 Y115.048
G0 X94.66 Y115.518
G1 F1800 X94.215 Y115.884 E17.56118
G1 X93.916 Y116.375 E17.57552
G1 X93.798 Y116.939 E17.58989
G1 X93.876 Y117.509 E17.60424
G1 X94.137 Y118.02 E17.61856
G1 X94.555 Y118.417 E17.63294
G1 X95.081 Y118.651 E17.6473
G1 X95.655 Y118.695 E17.66166
G1 X96.211 Y118.546 E17.67602
G1 X96.685 Y118.222 E17.69034
G1 X97.025 Y117.756 E17.70473
G1 X97.189 Y117.205 E17.71907
G1 X97.161 Y116.631 E17.73341
G1 X96.943 Y116.098 E17.74777
G1 X96.56 Y115.669 E17.76212
G1 X96.065 Y115.397 E17.77621
G1 X95.769 Y115.321 E17.78383
G1 X95.202 Y115.324 E17.79797
G1 X94.66 Y115.518 E17.81233
G0 F3600 X94.506 Y115.645
G0 X94.19 Y115.258
G0 X84.492 Y124.048
G0 X84.66 Y124.518
G1 F1800 X84.215 Y124.884 E17.82671
G1 X83.916 Y125.375 E17.84105
G1 X83.798 Y125.939 E17.85542
G1 X83.876 Y126.509 E17.86977
G1 X84.137 Y127.02 E17.88409
G1 X84.555 Y127.417 E17.89847
G1 X85.081 Y127.651 E17.91283
G1 X85.655 Y127.695 E17.92719
G1 X86.211 Y127.546 E17.94155
G1 X86.685 Y127.222 E17.95587
G1 X87.025 Y126.756 E17.97026
G1 X87.189 Y126.205 E17.9846
G1 X87.161 Y125.631 E17.99893
G1 X86.943 Y125.098 E18.0133
G1 X86.56 Y124.669 E18.02765
G1 X86.065 Y124.397 E18.04173
G1 X85.769 Y124.321 E18.04936
G1 X85.202 Y124.324 E18.0635
G1 X84.66 Y124.518 E18.07786
G0 F3600 X84.506 Y124.645
G0 X84.19 Y124.258
G0 X83.666 Y124.943
G0 X81.17 Y130.33
G0 X80.7 Y130.8
G1 F1800 X80.7 Y79.2 E19.36503
G1 X169.3 Y79.2 E21.57517
G1 X169.3 Y130.8 E22.86233
G1 X80.7 Y130.8 E25.07247
G0 F3600 X80.7 Y130.6
G0 X81.17 Y130.33
G0 X93.502 Y92.212
G0 X94.492 Y91.048
G0 X94.66 Y91.518
G1 F1800 X94.215 Y91.884 E25.08684
G1 X93.916 Y92.375 E25.10118
G1 X93.798 Y92.939 E25.11556
G1 X93.876 Y93.509 E25.12991
G1 X94.137 Y94.02 E25.14422
G1 X94.555 Y94.417 E25.1586
G1 X95.081 Y94.651 E25.17296
G1 X95.655 Y94.695 E25.18732
G1 X96.211 Y94.546 E25.20168
G1 X96.685 Y94.222 E25.216
G1 X97.025 Y93.756 E25.23039
G1 X97.189 Y93.205 E25.24473
G1 X97.161 Y92.631 E25.25907
G1 X96.943 Y92.098 E25.27343
G1 X96.56 Y91.669 E25.28778
G1 X96.065 Y91.397 E25.30187
G1 X95.769 Y91.321 E25.30949
G1 X95.202 Y91.324 E25.32364
G1 X94.66 Y91.518 E25.338
G0 F3600 X94.506 Y91.645
G0 X94.19 Y91.258
G0 X86.837 Y82.32
G0 X85.822 Y81.882
G0 X84.492 Y82.048
G0 X84.66 Y82.518
G1 F1800 X84.215 Y82.884 E25.35237
G1 X83.916 Y83.375 E25.36671
G1 X83.798 Y83.939 E25.38108
G1 X83.876 Y84.509 E25.39543
G1 X84.137 Y85.02 E25.40975
G1 X84.555 Y85.417 E25.42413
G1 X85.081 Y85.651 E25.43849
G1 X85.655 Y85.695 E25.45285
G1 X86.211 Y85.546 E25.46721
G1 X86.685 Y85.222 E25.48153
G1 X87.025 Y84.756 E25.49592
G1 X87.189 Y84.205 E25.51026
G1 X87.161 Y83.631 E25.5246
G1 X86.943 Y83.098 E25.53896
G1 X86.56 Y82.669 E25.55331
G1 X86.065 Y82.397 E25.5674
G1 X85.769 Y82.321 E25.57502
G1 X85.202 Y82.324 E25.58916
G1 X84.66 Y82.518 E25.60352
G0 F3600 X84.506 Y82.645
G0 X84.265 Y81.82
;TYPE:SKIN
G1 F1800 X83.61 Y82.359 E25.62468
G1 X83.171 Y83.08 E25.64574
G1 X82.996 Y83.911 E25.66692
G1 X83.111 Y84.749 E25.68802
G1 X83.495 Y85.499 E25.70904
G1 X84.109 Y86.083 E25.73018
G1 X84.885 Y86.429 E25.75138
G1 X85.73 Y86.493 E25.77251
G1 X86.545 Y86.274 E25.79357
G1 X87.243 Y85.797 E25.81465
G1 X87.744 Y85.112 E25.83582
G1 X87.984 Y84.301 E25.85692
G1 X87.943 Y83.457 E25.878
G1 X87.623 Y82.674 E25.8991
G1 X87.059 Y82.041 E25.92025
G1 X86.357 Y81.656 E25.94022
G1 X85.866 Y81.531 E25.95286
G1 X85.064 Y81.534 E25.97287
G1 X84.265 Y81.82 E25.99404
G0 F3600 X81.49 Y79.99
G1 F1800 X168.51 Y79.99 E28.16476
G1 X168.51 Y130.01 E29.41251
G1 X81.49 Y130.01 E31.58324
G1 X81.49 Y79.99 E32.83099
G0 F3600 X86.227 Y81.985
G0 X87.11 Y82.626
G0 X93.61 Y91.359
G1 F1800 X93.171 Y92.08 E32.85205
G1 X92.996 Y92.911 E32.87323
G1 X93.111 Y93.749 E32.89433
G1 X93.495 Y94.499 E32.91535
G1 X94.109 Y95.083 E32.93649
G1 X94.885 Y95.429 E32.95768
G1 X95.73 Y95.493 E32.97882
G1 X96.545 Y95.274 E32.99987
G1 X97.243 Y94.797 E33.02096
G1 X97.744 Y94.112 E33.04213
G1 X97.984 Y93.301 E33.06323
G1 X97.943 Y92.457 E33.08431
G1 X97.623 Y91.674 E33.10541
G1 X97.059 Y91.041 E33.12656
G1 X96.357 Y90.656 E33.14653
G1 X95.866 Y90.531 E33.15917
G1 X95.064 Y90.534 E33.17917
G1 X94.265 Y90.82 E33.20034
G1 X93.61 Y91.359 E33.2215
G0 F3600 X93.379 Y92.767
G0 X95.064 Y114.534
G1 F1800 X94.265 Y114.82 E33.24267
G1 X93.61 Y115.359 E33.26383
G1 X93.171 Y116.08 E33.28489
G1 X92.996 Y116.911 E33.30607
G1 X93.111 Y117.749 E33.32717
G1 X93.495 Y118.499 E33.34819
G1 X94.109 Y119.083 E33.36933
G1 X94.885 Y119.429 E33.39052
G1 X95.73 Y119.493 E33.41166
G1 X96.545 Y119.274 E33.43271
G1 X97.243 Y118.797 E33.4538
G1 X97.744 Y118.112 E33.47497
G1 X97.984 Y117.301 E33.49607
G1 X97.943 Y116.457 E33.51715
G1 X97.623 Y115.674 E33.53825
G1 X97.059 Y115.041 E33.5594
G1 X96.357 Y114.656 E33.57937
G1 X95.866 Y114.531 E33.59201
G1 X95.064 Y114.534 E33.61202
G0 F3600 X85.064 Y123.534
G1 F1800 X84.265 Y123.82 E33.63318
G1 X83.61 Y124.359 E33.65434
G1 X83.171 Y125.08 E33.6754
G1 X82.996 Y125.911 E33.69659
G1 X83.111 Y126.749 E33.71769
G1 X83.495 Y127.499 E33.7387
G1 X84.109 Y128.083 E33.75984
G1 X84.885 Y128.429 E33.78104
G1 X85.73 Y128.493 E33.80218
G1 X86.545 Y128.274 E33.82323
G1 X87.243 Y127.797 E33.84432
G1 X87.744 Y127.112 E33.86549
G1 X87.984 Y126.301 E33.88658
G1 X87.943 Y125.457 E33.90766
G1 X87.623 Y124.674 E33.92876
G1 X87.059 Y124.041 E33.94991
G1 X86.357 Y123.656 E33.96988
G1 X85.866 Y123.531 E33.98252
G1 X85.064 Y123.534 E34.00253
G0 F3600 X152.171 Y104.08
G1 F1800 X151.996 Y104.911 E34.02371
G1 X152.111 Y105.749 E34.04481
G1 X152.495 Y106.499 E34.06583
G1 X153.109 Y107.083 E34.08697
G1 X153.885 Y107.429 E34.10816
G1 X154.73 Y107.493 E34.1293
G1 X155.545 Y107.274 E34.15035
G1 X156.243 Y106.797 E34.17144
G1 X156.744 Y106.112 E34.19261
G1 X156.984 Y105.301 E34.21371
G1 X156.943 Y104.457 E34.23479
G1 X156.623 Y103.674 E34.25589
G1 X156.059 Y103.041 E34.27704
G1 X155.357 Y102.656 E34.29701
G1 X154.866 Y102.531 E34.30965
G1 X154.064 Y102.534 E34.32965
G1 X153.265 Y102.82 E34.35082
G1 X152.61 Y103.359 E34.37198
G1 X152.171 Y104.08 E34.39304
G0 F3600 X161.996 Y83.911
G1 F1800 X162.111 Y84.749 E34.41414
G1 X162.495 Y85.499 E34.43516
G1 X163.109 Y86.083 E34.4563
G1 X163.885 Y86.429 E34.47749
G1 X164.73 Y86.493 E34.49863
G1 X165.545 Y86.274 E34.51968
G1 X166.243 Y85.797 E34.54077
G1 X166.744 Y85.112 E34.56194
G1 X166.984 Y84.301 E34.58304
G1 X166.943 Y83.457 E34.60412
G1 X166.623 Y82.674 E34.62522
G1 X166.059 Y82.041 E34.64637
G1 X165.357 Y81.656 E34.66634
G1 X164.866 Y81.531 E34.67898
G1 X164.064 Y81.534 E34.69898
G1 X163.265 Y81.82 E34.72015
G1 X162.61 Y82.359 E34.74131
G1 X162.171 Y83.08 E34.76237
G1 X161.996 Y83.911 E34.78355
G0 F3600 X162.171 Y125.08
G1 F1800 X161.996 Y125.911 E34.80474
G1 X162.111 Y126.749 E34.82584
G1 X162.495 Y127.499 E34.84686
G1 X163.109 Y128.083 E34.86799
G1 X163.885 Y128.429 E34.88919
