; generated by Slic3r Prusa Edition 1.42.0-alpha5+linux64 on 2019-02-19 at 11:12:54

; 

; external perimeters extrusion width = 0.45mm
; perimeters extrusion width = 0.45mm
; infill extrusion width = 0.45mm
; solid infill extrusion width = 0.45mm
; top infill extrusion width = 0.40mm
; first layer extrusion width = 0.42mm

M73 P0 R84
M73 Q0 S85
M201 X1000 Y1000 Z1000 E5000 ; sets maximum accelerations, mm/sec^2
M203 X200 Y200 Z12 E120 ; sets maximum feedrates, mm/sec
M204 P1250 R1250 T1250 ; sets acceleration (P, T) and retract acceleration (R), mm/sec^2
M205 X8.00 Y8.00 Z0.40 E1.50 ; sets the jerk limits, mm/sec
M205 S0 T0 ; sets the minimum extruding and travel feed rate, mm/sec
M107
M115 U3.5.1 ; tell printer latest fw version
M83  ; extruder relative mode
M104 S215 ; set extruder temp
M140 S60 ; set bed temp
M190 S60 ; wait for bed temp
M109 S215 ; wait for extruder temp
G28 W ; home all without mesh bed level
G80 ; mesh bed leveling
G1 Y-3.0 F1000.0 ; go outside print area
G92 E0.0
G1 X60.0 E9.0  F1000.0 ; intro line
M73 Q0 S85
M73 P0 R84
G1 X100.0 E12.5  F1000.0 ; intro line
G92 E0.0
M221 S95
M900 K30; Filament gcode
G21 ; set units to millimeters
G90 ; use absolute coordinates
M83 ; use relative distances for extrusion
;BEFORE_LAYER_CHANGE
G92 E0.0
;0.2


G1 E-0.80000 F2100.00000
G1 Z0.600 F10800.000
;AFTER_LAYER_CHANGE
;0.2
G1 X95.997 Y55.861
G1 Z0.200
G1 E0.80000 F2100.00000
M204 S1000
G1 F1200
G1 X97.353 Y55.465 E0.04431
G1 X98.671 Y55.311 E0.04160
G1 X151.338 Y55.319 E1.65132
G1 X152.373 Y55.408 E0.03258
G1 X153.244 Y55.607 E0.02802
G1 X154.605 Y56.166 E0.04612
G1 X155.298 Y56.589 E0.02547
G1 X156.229 Y57.356 E0.03781
G1 X157.276 Y58.655 E0.05231
G1 X157.813 Y59.673 E0.03608
G1 X158.063 Y60.387 E0.02375
G1 X158.290 Y61.339 E0.03067
G1 X158.387 Y62.457 E0.03518
G1 X158.383 Y139.492 E2.41537
G1 X158.287 Y140.599 E0.03485
G1 X158.074 Y141.515 E0.02949
G1 X157.421 Y143.007 E0.05107
G1 X156.842 Y143.882 E0.03289
G1 X156.320 Y144.474 E0.02475
G1 X155.041 Y145.500 E0.05140
G1 X154.030 Y146.034 E0.03584
G1 X153.300 Y146.297 E0.02433
G1 X152.458 Y146.500 E0.02715
G1 X151.251 Y146.606 E0.03799
G1 X98.329 Y146.592 E1.65934
G1 X96.675 Y146.301 E0.05266
G1 X95.138 Y145.616 E0.05277
G1 X94.305 Y145.059 E0.03140
G1 X93.716 Y144.539 E0.02464
G1 X92.696 Y143.265 E0.05117
G1 X92.159 Y142.247 E0.03608
G1 X91.908 Y141.529 E0.02386
G1 X91.680 Y140.570 E0.03089
G1 X91.593 Y139.462 E0.03485
G1 X91.619 Y61.791 E2.43533
G1 X91.932 Y60.288 E0.04814
G1 X92.306 Y59.375 E0.03091
G1 X92.711 Y58.632 E0.02655
G1 X93.653 Y57.449 E0.04742
G1 X94.632 Y56.621 E0.04022
G1 X95.945 Y55.890 E0.04709
G1 F8640
G1 X97.353 Y55.465 E-0.33983
G1 X98.671 Y55.311 E-0.30632
G1 X99.164 Y55.311 E-0.11385
G1 E-0.04000 F2100.00000
G1 Z0.800 F10800.000
G1 X147.949 Y137.206
G1 Z0.200
G1 E0.80000 F2100.00000
G1 F1200
G1 X150.986 Y135.453 E0.10995
G1 X154.023 Y137.206 E0.10995
G1 X154.023 Y140.714 E0.10999
G1 X150.986 Y142.467 E0.10995
G1 X147.949 Y140.714 E0.10995
G1 X147.949 Y137.266 E0.10811
G1 X148.326 Y137.424 F10800.000
G1 F1200
G1 X150.986 Y135.889 E0.09630
G1 X153.646 Y137.424 E0.09630
G1 X153.646 Y140.496 E0.09634
G1 X150.986 Y142.031 E0.09630
G1 X148.326 Y140.496 E0.09630
G1 X148.326 Y137.484 E0.09446
G1 X148.126 Y137.077 F10800.000
G1 F8640
G1 X150.986 Y135.889 E-0.71618
G1 X151.150 Y135.983 E-0.04382
G1 E-0.04000 F2100.00000
G1 Z0.800 F10800.000
G1 X128.990 Y131.027
G1 Z0.200
G1 E0.80000 F2100.00000
G1 F1200
G1 X128.693 Y131.612 E0.02058
G1 X128.228 Y132.077 E0.02061
G1 X127.644 Y132.374 E0.02056
G1 X126.996 Y132.477 E0.02056
G1 X126.348 Y132.374 E0.02056
G1 X125.764 Y132.077 E0.02056
G1 X125.299 Y131.612 E0.02061
G1 X125.002 Y131.028 E0.02056
G1 X124.898 Y130.380 E0.02056
G1 X125.002 Y129.732 E0.02056
G1 X125.299 Y129.148 E0.02056
G1 X125.768 Y128.679 E0.02080
G1 X126.385 Y128.380 E0.02152
G1 X126.996 Y128.284 E0.01938
G1 X127.643 Y128.385 E0.02054
G1 X128.228 Y128.683 E0.02058
G1 X128.693 Y129.148 E0.02061
G1 X128.990 Y129.733 E0.02058
G1 X129.092 Y130.380 E0.02054
G1 X129.000 Y130.968 E0.01866
G1 X128.627 Y130.909 F10800.000
G1 F1200
G1 X128.384 Y131.388 E0.01683
G1 X128.004 Y131.768 E0.01686
G1 X127.526 Y132.011 E0.01682
G1 X126.996 Y132.096 E0.01682
G1 X126.466 Y132.011 E0.01682
G1 X125.988 Y131.768 E0.01682
G1 X125.608 Y131.388 E0.01686
G1 X125.365 Y130.910 E0.01682
G1 X125.280 Y130.380 E0.01682
G1 X125.365 Y129.850 E0.01682
G1 X125.608 Y129.372 E0.01682
G1 X125.989 Y128.990 E0.01692
G1 X126.499 Y128.744 E0.01776
G1 X126.996 Y128.665 E0.01576
G1 X127.525 Y128.749 E0.01681
G1 X128.004 Y128.992 E0.01683
G1 X128.384 Y129.372 E0.01686
G1 X128.627 Y129.850 E0.01683
G1 X128.710 Y130.380 E0.01681
G1 X128.637 Y130.850 E0.01492
G1 X128.895 Y131.206 F10800.000
G1 F8640
G1 X128.384 Y131.388 E-0.13722
G1 X128.004 Y131.768 E-0.12415
G1 X127.526 Y132.011 E-0.12386
G1 X126.996 Y132.096 E-0.12386
G1 X126.466 Y132.011 E-0.12386
G1 X125.988 Y131.768 E-0.12386
G1 X125.978 Y131.758 E-0.00319
G1 E-0.04000 F2100.00000
G1 Z0.800 F10800.000
G1 X102.023 Y137.206
G1 Z0.200
G1 E0.80000 F2100.00000
G1 F1200
G1 X102.023 Y140.714 E0.10999
G1 X98.986 Y142.467 E0.10995
G1 X95.949 Y140.714 E0.10995
G1 X95.949 Y137.206 E0.10999
G1 X98.986 Y135.453 E0.10995
G1 X101.971 Y137.176 E0.10807
G1 X101.646 Y137.424 F10800.000
G1 F1200
G1 X101.646 Y140.496 E0.09634
G1 X98.986 Y142.031 E0.09630
G1 X96.326 Y140.496 E0.09630
G1 X96.326 Y137.424 E0.09634
G1 X98.986 Y135.889 E0.09630
G1 X101.594 Y137.394 E0.09441
G1 X102.046 Y137.424 F10800.000
G1 F8640
G1 X101.646 Y140.496 E-0.71648
G1 X101.483 Y140.590 E-0.04352
G1 E-0.04000 F2100.00000
G1 Z0.800 F10800.000
G1 X108.387 Y113.987
G1 Z0.200
G1 E0.80000 F2100.00000
G1 F1200
G1 X107.991 Y113.683 E0.01565
G1 X107.729 Y113.307 E0.01438
G1 X107.619 Y112.945 E0.01184
G1 X107.618 Y89.013 E0.75037
G1 X107.703 Y88.694 E0.01037
G1 X107.828 Y88.440 E0.00886
G1 X108.114 Y88.120 E0.01345
G1 X108.443 Y87.922 E0.01204
G1 X108.931 Y87.829 E0.01559
G1 X109.251 Y87.855 E0.01005
G1 X109.547 Y87.943 E0.00968
G1 X109.901 Y88.153 E0.01293
G1 X110.137 Y88.433 E0.01147
G1 X110.350 Y88.867 E0.01518
G1 X110.354 Y112.787 E0.74998
G1 X110.327 Y113.051 E0.00834
G1 X110.250 Y113.292 E0.00791
G1 X110.060 Y113.580 E0.01082
G1 X109.870 Y113.785 E0.00877
G1 X109.532 Y113.984 E0.01230
G1 X109.231 Y114.067 E0.00976
G1 X108.811 Y114.077 E0.01320
G1 X108.446 Y113.999 E0.01170
G1 X108.549 Y113.636 F10800.000
G1 F1200
G1 X108.267 Y113.420 E0.01114
G1 X108.072 Y113.140 E0.01068
G1 X107.996 Y112.889 E0.00822
G1 X107.995 Y89.063 E0.74705
G1 X108.058 Y88.827 E0.00766
G1 X108.143 Y88.653 E0.00609
G1 X108.357 Y88.414 E0.01005
G1 X108.579 Y88.280 E0.00814
G1 X108.951 Y88.209 E0.01187
G1 X109.181 Y88.228 E0.00723
G1 X109.395 Y88.291 E0.00698
G1 X109.654 Y88.445 E0.00945
G1 X109.819 Y88.641 E0.00803
G1 X109.974 Y88.956 E0.01103
G1 X109.977 Y112.768 E0.74658
G1 X109.956 Y112.974 E0.00649
G1 X109.906 Y113.127 E0.00505
G1 X109.762 Y113.346 E0.00823
G1 X109.631 Y113.488 E0.00606
G1 X109.383 Y113.634 E0.00901
G1 X109.169 Y113.693 E0.00696
G1 X108.852 Y113.700 E0.00995
G1 X108.608 Y113.648 E0.00784
G1 X108.252 Y113.831 F10800.000
G1 F8640
G1 X108.267 Y113.420 E-0.09475
G1 X108.072 Y113.140 E-0.07865
G1 X107.996 Y112.889 E-0.06052
G1 X107.996 Y110.611 E-0.52608
G1 E-0.04000 F2100.00000
G1 Z0.800 F10800.000
G1 X113.775 Y113.971
G1 Z0.200
G1 E0.80000 F2100.00000
G1 F1200
G1 X113.657 Y113.949 E0.00375
G1 X112.989 Y114.231 E0.02273
G1 X112.884 Y114.073 E0.00594
G1 X112.692 Y114.079 E0.00601
G1 X112.230 Y113.901 E0.01553
G1 X111.835 Y113.514 E0.01733
G1 X111.661 Y113.152 E0.01260
G1 X111.621 Y112.789 E0.01146
G1 X111.598 Y89.101 E0.74273
G1 X111.668 Y88.776 E0.01043
G1 X111.973 Y88.210 E0.02014
G1 X112.274 Y88.020 E0.01118
G1 X112.562 Y87.899 E0.00978
G1 X112.929 Y87.846 E0.01164
G1 X113.305 Y87.852 E0.01178
G1 X113.974 Y88.097 E0.02235
G1 X113.986 Y88.252 E0.00486
G1 X114.203 Y88.543 E0.01137
G1 X114.355 Y89.015 E0.01557
G1 X114.363 Y112.958 E0.75071
G1 X114.187 Y113.413 E0.01530
G1 X113.810 Y113.923 E0.01986
G1 X113.612 Y113.557 F10800.000
G1 F1200
G1 X113.536 Y113.542 E0.00242
G1 X113.469 Y113.583 E0.00246
G1 X113.451 Y113.626 E0.00148
G1 X113.130 Y113.762 E0.01094
G1 X113.081 Y113.690 E0.00271
G1 X112.757 Y113.700 E0.01017
G1 X112.438 Y113.577 E0.01071
G1 X112.146 Y113.291 E0.01282
G1 X112.029 Y113.047 E0.00849
G1 X111.998 Y112.768 E0.00880
G1 X111.976 Y89.141 E0.74083
G1 X112.026 Y88.907 E0.00749
G1 X112.258 Y88.476 E0.01535
G1 X112.449 Y88.355 E0.00710
G1 X112.664 Y88.265 E0.00729
G1 X112.953 Y88.223 E0.00918
G1 X113.235 Y88.228 E0.00884
G1 X113.617 Y88.368 E0.01274
G1 X113.622 Y88.441 E0.00231
G1 X113.712 Y88.515 E0.00364
G1 X113.863 Y88.718 E0.00793
G1 X113.978 Y89.075 E0.01175
G1 X113.986 Y112.888 E0.74664
G1 X113.854 Y113.230 E0.01150
G1 X113.648 Y113.508 E0.01086
G1 X113.590 Y113.630 F10800.000
G1 F8640
G1 X113.536 Y113.542 E-0.02693
G1 X113.469 Y113.583 E-0.01812
G1 X113.451 Y113.626 E-0.01089
G1 X113.130 Y113.762 E-0.08060
G1 X113.081 Y113.690 E-0.01997
G1 X112.757 Y113.700 E-0.07491
G1 X112.438 Y113.577 E-0.07891
G1 X112.146 Y113.291 E-0.09440
G1 X112.029 Y113.047 E-0.06249
G1 X111.998 Y112.768 E-0.06478
G1 X111.997 Y111.781 E-0.22801
G1 E-0.04000 F2100.00000
G1 Z0.800 F10800.000
G1 X115.707 Y113.277
G1 Z0.200
G1 E0.80000 F2100.00000
G1 F1200
G1 X115.617 Y112.878 E0.01285
G1 X115.609 Y89.099 E0.74557
G1 X115.686 Y88.749 E0.01124
G1 X115.822 Y88.423 E0.01108
G1 X115.978 Y88.258 E0.00710
G1 X116.175 Y88.080 E0.00834
G1 X116.438 Y87.921 E0.00963
G1 X116.899 Y87.828 E0.01472
G1 X117.191 Y87.847 E0.00917
G1 X117.556 Y87.933 E0.01176
G1 X117.934 Y88.189 E0.01434
G1 X118.153 Y88.429 E0.01017
G1 X118.269 Y88.699 E0.00923
G1 X118.352 Y89.103 E0.01291
G1 X118.373 Y112.834 E0.74406
G1 X118.265 Y113.238 E0.01314
G1 X118.142 Y113.488 E0.00874
G1 X117.963 Y113.707 E0.00887
G1 X117.767 Y113.875 E0.00808
G1 X117.321 Y114.055 E0.01509
G1 X116.934 Y114.086 E0.01218
G1 X116.706 Y114.064 E0.00718
G1 X116.306 Y113.923 E0.01329
G1 X115.956 Y113.645 E0.01402
G1 X115.741 Y113.327 E0.01203
G1 F8640
G1 X115.617 Y112.878 E-0.10764
G1 X115.616 Y110.052 E-0.65236
G1 E-0.04000 F2100.00000
G1 Z0.800 F10800.000
G1 X117.569 Y113.549
G1 Z0.200
G1 E0.80000 F2100.00000
G1 F1200
G1 X117.233 Y113.684 E0.01134
G1 X116.937 Y113.708 E0.00932
G1 X116.788 Y113.693 E0.00470
G1 X116.491 Y113.588 E0.00987
G1 X116.235 Y113.385 E0.01023
G1 X116.059 Y113.125 E0.00986
G1 X115.994 Y112.836 E0.00930
G1 X115.986 Y89.140 E0.74296
G1 X116.047 Y88.863 E0.00889
G1 X116.144 Y88.632 E0.00786
G1 X116.241 Y88.528 E0.00446
G1 X116.401 Y88.384 E0.00674
G1 X116.577 Y88.278 E0.00645
G1 X116.924 Y88.208 E0.01111
G1 X117.135 Y88.221 E0.00662
G1 X117.402 Y88.284 E0.00858
G1 X117.686 Y88.476 E0.01076
G1 X117.831 Y88.636 E0.00677
G1 X117.907 Y88.813 E0.00603
G1 X117.975 Y89.141 E0.01052
G1 X117.996 Y112.784 E0.74131
G1 X117.911 Y113.105 E0.01040
G1 X117.823 Y113.283 E0.00623
G1 X117.614 Y113.510 E0.00966
G1 X117.582 Y113.910 F10800.000
G1 F8640
G1 X117.233 Y113.684 E-0.09673
G1 X116.937 Y113.708 E-0.06866
G1 X116.788 Y113.693 E-0.03461
G1 X116.491 Y113.588 E-0.07268
G1 X116.235 Y113.385 E-0.07534
G1 X116.059 Y113.125 E-0.07258
G1 X115.994 Y112.836 E-0.06849
G1 X115.994 Y111.662 E-0.27091
G1 E-0.04000 F2100.00000
G1 Z0.800 F10800.000
G1 X122.210 Y113.424
G1 Z0.200
G1 E0.80000 F2100.00000
G1 F1200
G1 X121.884 Y113.786 E0.01528
G1 X121.577 Y113.960 E0.01106
G1 X121.353 Y114.035 E0.00739
G1 X120.912 Y114.102 E0.01399
G1 X120.450 Y113.989 E0.01493
G1 X120.077 Y113.771 E0.01354
G1 X119.767 Y113.416 E0.01477
G1 X119.660 Y113.093 E0.01069
G1 X119.621 Y112.795 E0.00940
G1 X119.620 Y89.123 E0.74221
G1 X119.668 Y88.775 E0.01103
G1 X119.835 Y88.404 E0.01276
G1 X120.086 Y88.151 E0.01117
G1 X120.420 Y87.933 E0.01251
G1 X120.807 Y87.840 E0.01247
G1 X121.154 Y87.839 E0.01088
G1 X121.398 Y87.898 E0.00789
G1 X121.752 Y88.037 E0.01194
G1 X121.938 Y88.195 E0.00764
G1 X122.131 Y88.433 E0.00962
G1 X122.283 Y88.712 E0.00996
G1 X122.365 Y89.102 E0.01249
G1 X122.354 Y112.827 E0.74388
G1 X122.224 Y113.365 E0.01736
G1 X121.866 Y113.242 F10800.000
G1 F1200
G1 X121.645 Y113.488 E0.01037
G1 X121.423 Y113.614 E0.00800
G1 X121.265 Y113.667 E0.00523
G1 X120.929 Y113.718 E0.01063
G1 X120.592 Y113.636 E0.01088
G1 X120.320 Y113.477 E0.00988
G1 X120.101 Y113.226 E0.01044
G1 X120.029 Y113.008 E0.00718
G1 X119.998 Y112.771 E0.00751
G1 X119.998 Y89.149 E0.74065
G1 X120.034 Y88.880 E0.00852
G1 X120.150 Y88.621 E0.00890
G1 X120.325 Y88.445 E0.00777
G1 X120.572 Y88.285 E0.00922
G1 X120.844 Y88.219 E0.00878
G1 X121.117 Y88.218 E0.00856
G1 X121.284 Y88.258 E0.00541
G1 X121.556 Y88.365 E0.00914
G1 X121.667 Y88.460 E0.00458
G1 X121.817 Y88.644 E0.00745
G1 X121.926 Y88.844 E0.00714
G1 X121.988 Y89.141 E0.00952
G1 X121.977 Y112.782 E0.74124
G1 X121.880 Y113.184 E0.01297
G1 X122.041 Y113.523 F10800.000
G1 F8640
G1 X121.645 Y113.488 E-0.08877
G1 X121.423 Y113.614 E-0.05892
G1 X121.265 Y113.667 E-0.03849
G1 X120.929 Y113.718 E-0.07826
G1 X120.592 Y113.636 E-0.08014
G1 X120.320 Y113.477 E-0.07273
G1 X120.101 Y113.226 E-0.07690
G1 X120.029 Y113.008 E-0.05290
G1 X119.998 Y112.771 E-0.05531
G1 X119.998 Y112.088 E-0.15757
G1 E-0.04000 F2100.00000
G1 Z0.800 F10800.000
G1 X125.786 Y113.877
G1 Z0.200
G1 E0.80000 F2100.00000
G1 F1200
G1 X125.322 Y114.056 E0.01559
G1 X124.918 Y114.087 E0.01270
G1 X124.604 Y114.040 E0.00996
G1 X124.373 Y113.960 E0.00768
G1 X124.007 Y113.699 E0.01408
G1 X123.796 Y113.418 E0.01102
G1 X123.652 Y113.054 E0.01226
G1 X123.620 Y112.792 E0.00828
G1 X123.611 Y89.114 E0.74242
G1 X123.683 Y88.691 E0.01346
G1 X123.974 Y88.235 E0.01695
G1 X124.365 Y87.934 E0.01547
G1 X125.007 Y87.830 E0.02039
G1 X125.342 Y87.850 E0.01052
G1 X125.851 Y88.110 E0.01791
G1 X126.079 Y88.352 E0.01044
G1 X126.238 Y88.637 E0.01022
G1 X126.330 Y88.884 E0.00829
G1 X126.357 Y89.132 E0.00780
G1 X126.358 Y112.790 E0.74177
G1 X126.327 Y113.065 E0.00869
G1 X126.201 Y113.362 E0.01011
G1 X126.084 Y113.571 E0.00753
G1 X125.828 Y113.834 E0.01150
G1 X125.574 Y113.555 F10800.000
G1 F1200
G1 X125.238 Y113.684 E0.01127
G1 X124.932 Y113.708 E0.00964
G1 X124.695 Y113.673 E0.00750
G1 X124.548 Y113.621 E0.00488
G1 X124.274 Y113.426 E0.01057
G1 X124.128 Y113.232 E0.00760
G1 X124.020 Y112.961 E0.00915
G1 X123.997 Y112.770 E0.00603
G1 X123.988 Y89.145 E0.74072
G1 X124.042 Y88.829 E0.01006
G1 X124.256 Y88.494 E0.01249
G1 X124.522 Y88.289 E0.01051
G1 X125.024 Y88.209 E0.01593
G1 X125.241 Y88.222 E0.00683
G1 X125.621 Y88.416 E0.01338
G1 X125.773 Y88.577 E0.00694
G1 X125.895 Y88.795 E0.00785
G1 X125.960 Y88.971 E0.00589
G1 X125.980 Y89.152 E0.00569
G1 X125.981 Y112.769 E0.74049
G1 X125.958 Y112.969 E0.00631
G1 X125.862 Y113.196 E0.00773
G1 X125.779 Y113.344 E0.00533
G1 X125.615 Y113.512 E0.00736
G1 X125.581 Y113.914 F10800.000
G1 F8640
G1 X125.238 Y113.684 E-0.09575
G1 X124.932 Y113.708 E-0.07103
G1 X124.695 Y113.673 E-0.05524
G1 X124.548 Y113.621 E-0.03591
G1 X124.274 Y113.426 E-0.07781
G1 X124.128 Y113.232 E-0.05600
G1 X124.020 Y112.961 E-0.06738
G1 X123.997 Y112.770 E-0.04441
G1 X123.997 Y111.659 E-0.25648
G1 E-0.04000 F2100.00000
G1 Z0.800 F10800.000
G1 X129.016 Y114.271
G1 Z0.200
G1 E0.80000 F2100.00000
G1 F1200
G1 X128.913 Y114.116 E0.00584
G1 X128.657 Y114.105 E0.00802
G1 X128.567 Y114.017 E0.00394
G1 X128.447 Y113.985 E0.00389
G1 X128.141 Y113.827 E0.01081
G1 X127.843 Y113.497 E0.01395
G1 X127.661 Y113.137 E0.01265
G1 X127.620 Y112.792 E0.01088
G1 X127.608 Y89.132 E0.74184
G1 X127.636 Y88.871 E0.00825
G1 X127.769 Y88.537 E0.01128
G1 X127.926 Y88.313 E0.00855
G1 X128.116 Y88.124 E0.00842
G1 X128.417 Y87.936 E0.01113
G1 X128.905 Y87.844 E0.01557
G1 X129.178 Y87.842 E0.00855
G1 X129.557 Y87.940 E0.01229
G1 X129.890 Y88.143 E0.01222
G1 X130.141 Y88.428 E0.01191
G1 X130.251 Y88.659 E0.00802
G1 X130.329 Y88.899 E0.00790
G1 X130.353 Y89.133 E0.00737
G1 X130.350 Y112.865 E0.74411
M73 Q1 S84
G1 X130.312 Y113.124 E0.00819
G1 X130.188 Y113.382 E0.00897
G1 X130.078 Y113.567 E0.00676
G1 X129.847 Y113.824 E0.01084
G1 X129.069 Y114.242 E0.02769
G1 X129.139 Y113.777 F10800.000
G1 F1200
G1 X129.096 Y113.713 E0.00242
