; generated by Slic3r Prusa Edition 1.42.0-alpha5+linux64 on 2019-02-08 at 22:24:43

; 

; external perimeters extrusion width = 0.45mm
; perimeters extrusion width = 0.45mm
; infill extrusion width = 0.45mm
; solid infill extrusion width = 0.45mm
; top infill extrusion width = 0.40mm
; first layer extrusion width = 0.42mm

M73 P0 R33
M73 Q0 S34
M201 X1000 Y1000 Z1000 E5000 ; sets maximum accelerations, mm/sec^2
M203 X200 Y200 Z12 E120 ; sets maximum feedrates, mm/sec
M204 P1250 R1250 T1250 ; sets acceleration (P, T) and retract acceleration (R), mm/sec^2
M205 X8.00 Y8.00 Z0.40 E1.50 ; sets the jerk limits, mm/sec
M205 S0 T0 ; sets the minimum extruding and travel feed rate, mm/sec
M107
M115 U3.5.1 ; tell printer latest fw version
M83  ; extruder relative mode
M104 S215 ; set extruder temp
M140 S60 ; set bed temp
M190 S60 ; wait for bed temp
M109 S215 ; wait for extruder temp
G28 W ; home all without mesh bed level
G80 ; mesh bed leveling
G1 Y-3.0 F1000.0 ; go outside print area
G92 E0.0
G1 X60.0 E9.0  F1000.0 ; intro line
M73 Q0 S34
M73 P0 R33
G1 X100.0 E12.5  F1000.0 ; intro line
G92 E0.0
M221 S95
M900 K30; Filament gcode
G21 ; set units to millimeters
G90 ; use absolute coordinates
M83 ; use relative distances for extrusion
;BEFORE_LAYER_CHANGE
G92 E0.0
;0.2


G1 E-0.80000 F2100.00000
G1 Z0.600 F10800.000
;AFTER_LAYER_CHANGE
;0.2
G1 X100.110 Y71.379
G1 Z0.200
G1 E0.80000 F2100.00000
M204 S1000
G1 F1200
G1 X100.988 Y71.183 E0.02822
G1 X153.020 Y71.183 E1.63141
G1 X153.843 Y71.345 E0.02631
G1 X154.545 Y71.805 E0.02631
G1 X155.022 Y72.496 E0.02631
G1 X155.204 Y73.311 E0.02620
G1 X155.205 Y129.394 E1.75843
G1 X155.056 Y130.165 E0.02462
G1 X154.647 Y130.831 E0.02451
G1 X153.912 Y131.368 E0.02855
G1 X153.022 Y131.560 E0.02855
G1 X100.994 Y131.560 E1.63129
G1 X100.223 Y131.412 E0.02462
G1 X99.557 Y131.003 E0.02451
G1 X99.019 Y130.268 E0.02855
G1 X98.828 Y129.378 E0.02855
G1 X98.828 Y73.350 E1.75671
G1 X98.976 Y72.579 E0.02462
G1 X99.385 Y71.913 E0.02451
G1 X100.062 Y71.415 E0.02634
G1 F8640
G1 X100.988 Y71.183 E-0.22055
G1 X103.325 Y71.183 E-0.53945
G1 E-0.04000 F2100.00000
G1 Z0.800 F10800.000
G1 X148.284 Y123.175
G1 Z0.200
G1 E0.80000 F2100.00000
G1 F1200
G1 X148.869 Y122.877 E0.02058
G1 X149.504 Y122.777 E0.02015
G1 X150.161 Y122.876 E0.02085
G1 X150.748 Y123.175 E0.02064
G1 X151.213 Y123.639 E0.02061
G1 X151.510 Y124.224 E0.02056
G1 X151.614 Y124.872 E0.02056
G1 X151.510 Y125.519 E0.02056
G1 X151.213 Y126.104 E0.02056
G1 X150.748 Y126.569 E0.02061
G1 X150.164 Y126.866 E0.02056
G1 X149.516 Y126.969 E0.02056
G1 X148.868 Y126.866 E0.02056
G1 X148.284 Y126.569 E0.02056
G1 X147.819 Y126.104 E0.02061
G1 X147.522 Y125.519 E0.02058
G1 X147.420 Y124.872 E0.02054
G1 X147.522 Y124.225 E0.02054
G1 X147.819 Y123.639 E0.02058
G1 X148.242 Y123.217 E0.01873
G1 X148.508 Y123.484 F10800.000
G1 F1200
G1 X148.987 Y123.240 E0.01683
G1 X149.505 Y123.159 E0.01646
G1 X150.045 Y123.240 E0.01712
G1 X150.524 Y123.484 E0.01685
G1 X150.904 Y123.864 E0.01686
G1 X151.147 Y124.342 E0.01682
G1 X151.232 Y124.872 E0.01682
G1 X151.147 Y125.401 E0.01682
G1 X150.904 Y125.880 E0.01682
G1 X150.524 Y126.260 E0.01686
G1 X150.046 Y126.503 E0.01682
G1 X149.516 Y126.587 E0.01682
G1 X148.986 Y126.503 E0.01682
G1 X148.508 Y126.260 E0.01682
G1 X148.128 Y125.880 E0.01686
G1 X147.885 Y125.401 E0.01683
G1 X147.802 Y124.872 E0.01681
G1 X147.885 Y124.342 E0.01681
G1 X148.128 Y123.864 E0.01683
G1 X148.466 Y123.526 E0.01497
G1 X148.467 Y123.086 F10800.000
G1 F8640
G1 X148.987 Y123.240 E-0.13718
G1 X149.505 Y123.159 E-0.12119
G1 X150.045 Y123.240 E-0.12606
G1 X150.524 Y123.484 E-0.12408
G1 X150.904 Y123.864 E-0.12415
G1 X151.147 Y124.342 E-0.12387
G1 X151.150 Y124.357 E-0.00347
G1 E-0.04000 F2100.00000
G1 Z0.800 F10800.000
G1 X142.352 Y117.615
G1 Z0.200
G1 E0.80000 F2100.00000
G1 F1200
G1 X141.837 Y117.878 E0.01810
G1 X141.266 Y117.969 E0.01814
G1 X140.695 Y117.878 E0.01814
G1 X140.181 Y117.615 E0.01810
G1 X139.772 Y117.207 E0.01811
G1 X139.510 Y116.692 E0.01812
G1 X139.420 Y116.122 E0.01811
G1 X139.510 Y115.551 E0.01811
G1 X139.772 Y115.036 E0.01812
G1 X140.181 Y114.628 E0.01811
G1 X140.696 Y114.365 E0.01812
G1 X141.266 Y114.275 E0.01811
G1 X141.837 Y114.365 E0.01811
G1 X142.352 Y114.628 E0.01812
G1 X142.760 Y115.036 E0.01811
G1 X143.022 Y115.550 E0.01810
G1 X143.114 Y116.122 E0.01814
G1 X143.022 Y116.693 E0.01814
G1 X142.760 Y117.207 E0.01810
G1 X142.394 Y117.573 E0.01622
G1 X142.127 Y117.306 F10800.000
G1 F1200
G1 X141.719 Y117.515 E0.01437
G1 X141.266 Y117.587 E0.01438
G1 X140.813 Y117.515 E0.01438
G1 X140.405 Y117.307 E0.01436
G1 X140.081 Y116.983 E0.01437
G1 X139.873 Y116.574 E0.01437
G1 X139.802 Y116.122 E0.01437
G1 X139.873 Y115.669 E0.01437
G1 X140.081 Y115.261 E0.01437
G1 X140.405 Y114.937 E0.01437
G1 X140.813 Y114.728 E0.01437
G1 X141.266 Y114.657 E0.01437
G1 X141.719 Y114.728 E0.01437
G1 X142.127 Y114.937 E0.01437
G1 X142.451 Y115.261 E0.01437
G1 X142.659 Y115.669 E0.01436
G1 X142.732 Y116.122 E0.01438
G1 X142.659 Y116.575 E0.01438
G1 X142.451 Y116.983 E0.01436
G1 X142.170 Y117.264 E0.01247
G1 X142.169 Y117.704 F10800.000
G1 F8640
G1 X141.719 Y117.515 E-0.11911
G1 X141.266 Y117.587 E-0.10591
G1 X140.813 Y117.515 E-0.10591
G1 X140.405 Y117.307 E-0.10578
G1 X140.081 Y116.983 E-0.10579
G1 X139.873 Y116.574 E-0.10584
G1 X139.802 Y116.122 E-0.10581
G1 X139.805 Y116.097 E-0.00584
G1 E-0.04000 F2100.00000
G1 Z0.800 F10800.000
G1 X112.912 Y116.122
G1 Z0.200
G1 E0.80000 F2100.00000
G1 F1200
G1 X112.823 Y116.692 E0.01811
G1 X112.560 Y117.207 E0.01812
G1 X112.152 Y117.615 E0.01811
G1 X111.637 Y117.878 E0.01810
G1 X111.066 Y117.969 E0.01814
G1 X110.495 Y117.878 E0.01814
G1 X109.981 Y117.615 E0.01810
G1 X109.572 Y117.207 E0.01811
G1 X109.310 Y116.693 E0.01810
G1 X109.219 Y116.122 E0.01814
G1 X109.310 Y115.550 E0.01814
G1 X109.572 Y115.036 E0.01810
G1 X109.984 Y114.625 E0.01825
G1 X110.519 Y114.362 E0.01871
G1 X111.066 Y114.275 E0.01736
G1 X111.637 Y114.365 E0.01811
G1 X112.152 Y114.628 E0.01812
G1 X112.560 Y115.036 E0.01811
G1 X112.823 Y115.551 E0.01812
G1 X112.903 Y116.062 E0.01623
G1 X112.531 Y116.121 F10800.000
G1 F1200
G1 X112.459 Y116.574 E0.01439
G1 X112.251 Y116.983 E0.01437
G1 X111.927 Y117.307 E0.01437
G1 X111.519 Y117.515 E0.01436
G1 X111.066 Y117.587 E0.01438
G1 X110.613 Y117.515 E0.01438
G1 X110.205 Y117.307 E0.01436
G1 X109.881 Y116.983 E0.01437
G1 X109.673 Y116.575 E0.01436
G1 X109.600 Y116.122 E0.01438
G1 X109.673 Y115.669 E0.01438
G1 X109.881 Y115.261 E0.01436
G1 X110.206 Y114.936 E0.01442
G1 X110.634 Y114.725 E0.01496
G1 X111.066 Y114.657 E0.01370
G1 X111.519 Y114.728 E0.01437
G1 X111.927 Y114.937 E0.01437
G1 X112.251 Y115.261 E0.01437
G1 X112.459 Y115.669 E0.01437
G1 X112.521 Y116.062 E0.01247
G1 X112.877 Y116.321 F10800.000
G1 F8640
G1 X112.459 Y116.574 E-0.11920
G1 X112.251 Y116.983 E-0.10584
G1 X111.927 Y117.307 E-0.10579
G1 X111.519 Y117.515 E-0.10578
G1 X111.066 Y117.587 E-0.10591
G1 X110.613 Y117.515 E-0.10591
G1 X110.205 Y117.307 E-0.10578
G1 X110.187 Y117.289 E-0.00579
G1 E-0.04000 F2100.00000
G1 Z0.800 F10800.000
G1 X105.602 Y123.378
G1 Z0.200
G1 E0.80000 F2100.00000
G1 F1200
G1 X106.010 Y123.786 E0.01811
G1 X106.273 Y124.301 E0.01812
G1 X106.362 Y124.872 E0.01811
G1 X106.273 Y125.442 E0.01811
G1 X106.010 Y125.957 E0.01812
G1 X105.602 Y126.365 E0.01811
G1 X105.087 Y126.628 E0.01810
G1 X104.516 Y126.719 E0.01814
G1 X103.945 Y126.628 E0.01814
G1 X103.431 Y126.365 E0.01810
G1 X103.022 Y125.957 E0.01811
G1 X102.760 Y125.443 E0.01810
G1 X102.669 Y124.872 E0.01814
G1 X102.760 Y124.300 E0.01814
G1 X103.022 Y123.786 E0.01810
G1 X103.434 Y123.375 E0.01825
G1 X103.969 Y123.112 E0.01871
G1 X104.516 Y123.025 E0.01736
G1 X105.087 Y123.115 E0.01811
G1 X105.548 Y123.351 E0.01624
G1 X105.377 Y123.687 F10800.000
G1 F1200
G1 X105.701 Y124.011 E0.01438
G1 X105.909 Y124.419 E0.01437
G1 X105.981 Y124.872 E0.01437
G1 X105.909 Y125.324 E0.01437
G1 X105.701 Y125.733 E0.01437
G1 X105.377 Y126.057 E0.01437
G1 X104.969 Y126.265 E0.01436
G1 X104.516 Y126.337 E0.01438
G1 X104.063 Y126.265 E0.01438
G1 X103.655 Y126.057 E0.01436
G1 X103.331 Y125.733 E0.01437
G1 X103.123 Y125.325 E0.01436
G1 X103.050 Y124.872 E0.01438
G1 X103.123 Y124.419 E0.01438
G1 X103.331 Y124.011 E0.01436
G1 X103.656 Y123.686 E0.01442
G1 X104.084 Y123.475 E0.01496
G1 X104.516 Y123.407 E0.01370
G1 X104.969 Y123.478 E0.01437
G1 X105.323 Y123.659 E0.01248
G1 X105.742 Y123.524 F10800.000
G1 F8640
G1 X105.701 Y124.011 E-0.11913
G1 X105.909 Y124.419 E-0.10584
G1 X105.981 Y124.872 E-0.10581
G1 X105.909 Y125.324 E-0.10581
G1 X105.701 Y125.733 E-0.10584
G1 X105.377 Y126.057 E-0.10579
G1 X104.969 Y126.265 E-0.10578
G1 X104.943 Y126.269 E-0.00600
G1 E-0.04000 F2100.00000
G1 Z0.800 F10800.000
G1 X111.066 Y87.768
G1 Z0.200
G1 E0.80000 F2100.00000
G1 F1200
G1 X110.496 Y87.678 E0.01811
G1 X109.981 Y87.415 E0.01812
G1 X109.572 Y87.007 E0.01811
G1 X109.310 Y86.493 E0.01810
G1 X109.219 Y85.922 E0.01814
G1 X109.310 Y85.350 E0.01814
G1 X109.572 Y84.836 E0.01810
G1 X109.984 Y84.425 E0.01824
G1 X110.519 Y84.162 E0.01868
G1 X111.066 Y84.074 E0.01739
G1 X111.637 Y84.166 E0.01814
G1 X112.152 Y84.428 E0.01810
G1 X112.560 Y84.836 E0.01811
G1 X112.823 Y85.351 E0.01812
G1 X112.912 Y85.922 E0.01811
G1 X112.823 Y86.492 E0.01811
G1 X112.560 Y87.007 E0.01812
G1 X112.152 Y87.415 E0.01811
G1 X111.637 Y87.678 E0.01812
G1 X111.125 Y87.759 E0.01623
G1 X111.067 Y87.386 F10800.000
G1 F1200
G1 X110.613 Y87.315 E0.01439
G1 X110.205 Y87.107 E0.01437
G1 X109.881 Y86.783 E0.01437
G1 X109.673 Y86.375 E0.01436
G1 X109.600 Y85.922 E0.01438
G1 X109.673 Y85.469 E0.01438
G1 X109.881 Y85.061 E0.01436
G1 X110.206 Y84.736 E0.01442
G1 X110.634 Y84.525 E0.01495
G1 X111.066 Y84.456 E0.01372
G1 X111.519 Y84.529 E0.01438
G1 X111.927 Y84.737 E0.01436
G1 X112.251 Y85.061 E0.01437
G1 X112.459 Y85.469 E0.01437
G1 X112.531 Y85.922 E0.01437
G1 X112.459 Y86.374 E0.01437
G1 X112.251 Y86.783 E0.01437
G1 X111.927 Y87.107 E0.01437
G1 X111.519 Y87.315 E0.01437
G1 X111.126 Y87.377 E0.01247
G1 X110.867 Y87.733 F10800.000
G1 F8640
G1 X110.613 Y87.315 E-0.11920
G1 X110.205 Y87.107 E-0.10584
G1 X109.881 Y86.783 E-0.10579
G1 X109.673 Y86.375 E-0.10578
G1 X109.600 Y85.922 E-0.10591
G1 X109.673 Y85.469 E-0.10591
G1 X109.881 Y85.061 E-0.10578
G1 X109.899 Y85.043 E-0.00579
G1 E-0.04000 F2100.00000
G1 Z0.800 F10800.000
G1 X105.748 Y81.569
G1 Z0.200
G1 E0.80000 F2100.00000
G1 F1200
G1 X105.163 Y81.866 E0.02058
G1 X104.516 Y81.968 E0.02054
G1 X103.869 Y81.866 E0.02054
G1 X103.284 Y81.569 E0.02058
G1 X102.819 Y81.104 E0.02061
G1 X102.522 Y80.519 E0.02056
G1 X102.419 Y79.872 E0.02056
G1 X102.522 Y79.224 E0.02056
G1 X102.819 Y78.639 E0.02056
G1 X103.285 Y78.173 E0.02068
G1 X103.881 Y77.875 E0.02087
G1 X104.516 Y77.774 E0.02017
G1 X105.164 Y77.877 E0.02056
G1 X105.748 Y78.175 E0.02056
G1 X106.213 Y78.639 E0.02061
G1 X106.511 Y79.225 E0.02058
G1 X106.612 Y79.872 E0.02054
G1 X106.511 Y80.519 E0.02054
G1 X106.213 Y81.104 E0.02058
G1 X105.791 Y81.526 E0.01873
G1 X105.524 Y81.260 F10800.000
G1 F1200
G1 X105.046 Y81.503 E0.01683
G1 X104.516 Y81.586 E0.01681
G1 X103.987 Y81.503 E0.01681
G1 X103.508 Y81.260 E0.01683
G1 X103.128 Y80.880 E0.01686
G1 X102.885 Y80.401 E0.01682
G1 X102.800 Y79.872 E0.01682
G1 X102.885 Y79.342 E0.01682
G1 X103.128 Y78.864 E0.01682
G1 X103.509 Y78.483 E0.01688
G1 X103.997 Y78.239 E0.01713
G1 X104.516 Y78.156 E0.01647
G1 X105.046 Y78.240 E0.01682
G1 X105.524 Y78.484 E0.01682
G1 X105.904 Y78.864 E0.01686
G1 X106.147 Y79.342 E0.01683
G1 X106.231 Y79.872 E0.01681
G1 X106.147 Y80.401 E0.01681
G1 X105.904 Y80.880 E0.01683
G1 X105.567 Y81.217 E0.01497
G1 X105.566 Y81.657 F10800.000
G1 F8640
G1 X105.046 Y81.503 E-0.13718
G1 X104.516 Y81.586 E-0.12377
G1 X103.987 Y81.503 E-0.12377
G1 X103.508 Y81.260 E-0.12392
G1 X103.128 Y80.880 E-0.12415
G1 X102.885 Y80.401 E-0.12387
G1 X102.883 Y80.387 E-0.00336
G1 E-0.04000 F2100.00000
G1 Z0.800 F10800.000
G1 X139.420 Y85.922
G1 Z0.200
G1 E0.80000 F2100.00000
G1 F1200
G1 X139.510 Y85.351 E0.01811
G1 X139.772 Y84.836 E0.01812
G1 X140.184 Y84.425 E0.01824
G1 X140.719 Y84.162 E0.01868
G1 X141.266 Y84.074 E0.01739
G1 X141.837 Y84.166 E0.01814
G1 X142.352 Y84.428 E0.01810
G1 X142.760 Y84.836 E0.01811
G1 X143.022 Y85.350 E0.01810
G1 X143.114 Y85.922 E0.01814
G1 X143.022 Y86.493 E0.01814
G1 X142.760 Y87.007 E0.01810
G1 X142.352 Y87.415 E0.01811
G1 X141.837 Y87.678 E0.01812
G1 X141.266 Y87.768 E0.01811
G1 X140.696 Y87.678 E0.01811
G1 X140.181 Y87.415 E0.01812
G1 X139.772 Y87.007 E0.01811
G1 X139.510 Y86.492 E0.01812
G1 X139.429 Y85.981 E0.01623
G1 X139.802 Y85.922 F10800.000
G1 F1200
G1 X139.873 Y85.469 E0.01439
G1 X140.081 Y85.061 E0.01437
G1 X140.406 Y84.736 E0.01442
G1 X140.834 Y84.525 E0.01495
G1 X141.266 Y84.456 E0.01372
G1 X141.719 Y84.529 E0.01438
G1 X142.127 Y84.737 E0.01436
G1 X142.451 Y85.061 E0.01437
G1 X142.659 Y85.469 E0.01436
G1 X142.732 Y85.922 E0.01438
G1 X142.659 Y86.375 E0.01438
G1 X142.451 Y86.783 E0.01436
G1 X142.127 Y87.107 E0.01437
G1 X141.719 Y87.315 E0.01437
G1 X141.266 Y87.386 E0.01437
G1 X140.813 Y87.315 E0.01437
G1 X140.405 Y87.107 E0.01437
G1 X140.081 Y86.783 E0.01437
G1 X139.873 Y86.374 E0.01437
G1 X139.811 Y85.981 E0.01247
G1 X139.455 Y85.722 F10800.000
G1 F8640
G1 X139.873 Y85.469 E-0.11920
G1 X140.081 Y85.061 E-0.10584
G1 X140.406 Y84.736 E-0.10616
G1 X140.834 Y84.525 E-0.11009
G1 X141.266 Y84.456 E-0.10102
G1 X141.719 Y84.529 E-0.10591
G1 X142.127 Y84.737 E-0.10578
G1 X142.146 Y84.755 E-0.00600
G1 E-0.04000 F2100.00000
G1 Z0.800 F10800.000
G1 X148.022 Y80.957
G1 Z0.200
G1 E0.80000 F2100.00000
G1 F1200
G1 X147.760 Y80.443 E0.01810
G1 X147.669 Y79.872 E0.01814
G1 X147.760 Y79.300 E0.01814
G1 X148.022 Y78.786 E0.01810
G1 X148.431 Y78.378 E0.01811
G1 X148.945 Y78.116 E0.01810
G1 X149.516 Y78.024 E0.01814
G1 X150.087 Y78.116 E0.01814
G1 X150.602 Y78.378 E0.01810
G1 X151.010 Y78.786 E0.01811
G1 X151.273 Y79.301 E0.01812
G1 X151.362 Y79.872 E0.01811
G1 X151.273 Y80.442 E0.01811
G1 X151.010 Y80.957 E0.01812
G1 X150.602 Y81.365 E0.01811
G1 X150.087 Y81.628 E0.01812
G1 X149.516 Y81.718 E0.01811
G1 X148.946 Y81.628 E0.01811
G1 X148.431 Y81.365 E0.01812
G1 X148.065 Y81.000 E0.01622
G1 X148.331 Y80.733 F10800.000
G1 F1200
G1 X148.123 Y80.325 E0.01437
G1 X148.050 Y79.872 E0.01438
G1 X148.123 Y79.419 E0.01438
G1 X148.331 Y79.011 E0.01436
G1 X148.655 Y78.687 E0.01437
G1 X149.063 Y78.479 E0.01436
G1 X149.516 Y78.406 E0.01438
G1 X149.969 Y78.479 E0.01438
G1 X150.377 Y78.687 E0.01436
G1 X150.701 Y79.011 E0.01437
G1 X150.909 Y79.419 E0.01437
G1 X150.981 Y79.872 E0.01437
G1 X150.909 Y80.324 E0.01437
G1 X150.701 Y80.733 E0.01437
G1 X150.377 Y81.057 E0.01437
G1 X149.969 Y81.265 E0.01437
G1 X149.516 Y81.336 E0.01437
G1 X149.063 Y81.265 E0.01437
G1 X148.655 Y81.057 E0.01437
G1 X148.374 Y80.775 E0.01247
G1 X147.934 Y80.775 F10800.000
G1 F8640
G1 X148.123 Y80.325 E-0.11911
G1 X148.050 Y79.872 E-0.10591
G1 X148.123 Y79.419 E-0.10591
G1 X148.331 Y79.011 E-0.10578
G1 X148.655 Y78.687 E-0.10579
G1 X149.063 Y78.479 E-0.10578
G1 X149.516 Y78.406 E-0.10591
G1 X149.541 Y78.410 E-0.00580
G1 E-0.04000 F2100.00000
G1 Z0.800 F10800.000
G1 X152.429 Y73.959
G1 Z0.200
G1 E0.80000 F2100.00000
G1 F1200
G1 X152.429 Y128.785 E1.71903
G1 X101.603 Y128.785 E1.59361
G1 X101.603 Y73.959 E1.71903
G1 X152.369 Y73.959 E1.59173
G1 X152.806 Y73.582 F10800.000
G1 F1200
G1 X152.806 Y129.162 E1.74267
G1 X101.226 Y129.162 E1.61725
G1 X101.226 Y73.582 E1.74267
G1 X152.746 Y73.582 E1.61537
G1 X152.707 Y73.969 F10800.000
G1 F8640
G1 X152.750 Y76.873 E-0.76000
G1 E-0.04000 F2100.00000
G1 Z0.800 F10800.000
G1 X152.316 Y74.836
G1 Z0.200
G1 E0.80000 F2100.00000
G1 F1200
G1 X151.722 Y74.242 E0.02641
G1 X151.187 Y74.242 E0.01679
G1 X152.146 Y75.200 E0.04261
G1 X152.146 Y75.735 E0.01679
G1 X150.653 Y74.242 E0.06636
G1 X150.119 Y74.242 E0.01679
G1 X152.146 Y76.269 E0.09010
G1 X152.146 Y76.804 E0.01679
G1 X149.584 Y74.242 E0.11385
G1 X149.050 Y74.242 E0.01679
G1 X152.146 Y77.338 E0.13759
G1 X152.146 Y77.872 E0.01679
G1 X148.515 Y74.242 E0.16134
G1 X147.981 Y74.242 E0.01679
G1 X152.146 Y78.407 E0.18508
G1 X152.146 Y78.941 E0.01679
G1 X147.447 Y74.242 E0.20883
