; generated by Slic3r Prusa Edition 1.42.0-alpha5+linux64 on 2019-02-09 at 22:48:50

; 

; external perimeters extrusion width = 0.45mm
; perimeters extrusion width = 0.45mm
; infill extrusion width = 0.45mm
; solid infill extrusion width = 0.45mm
; top infill extrusion width = 0.40mm
; first layer extrusion width = 0.42mm

M73 P0 R69
M73 Q0 S69
M201 X1000 Y1000 Z1000 E5000 ; sets maximum accelerations, mm/sec^2
M203 X200 Y200 Z12 E120 ; sets maximum feedrates, mm/sec
M204 P1250 R1250 T1250 ; sets acceleration (P, T) and retract acceleration (R), mm/sec^2
M205 X8.00 Y8.00 Z0.40 E1.50 ; sets the jerk limits, mm/sec
M205 S0 T0 ; sets the minimum extruding and travel feed rate, mm/sec
M107
M115 U3.5.1 ; tell printer latest fw version
M83  ; extruder relative mode
M104 S215 ; set extruder temp
M140 S60 ; set bed temp
M190 S60 ; wait for bed temp
M109 S215 ; wait for extruder temp
G28 W ; home all without mesh bed level
G80 ; mesh bed leveling
G1 Y-3.0 F1000.0 ; go outside print area
G92 E0.0
G1 X60.0 E9.0  F1000.0 ; intro line
M73 Q0 S69
M73 P0 R69
G1 X100.0 E12.5  F1000.0 ; intro line
G92 E0.0
M221 S95
M900 K30; Filament gcode
G21 ; set units to millimeters
G90 ; use absolute coordinates
M83 ; use relative distances for extrusion
;BEFORE_LAYER_CHANGE
G92 E0.0
;0.2


G1 E-0.80000 F2100.00000
G1 Z0.600 F10800.000
;AFTER_LAYER_CHANGE
;0.2
G1 X115.161 Y118.565
G1 Z0.200
G1 E0.80000 F2100.00000
M204 S1000
G1 F1200
G1 X115.734 Y118.115 E0.02288
G1 X116.366 Y117.750 E0.02288
G1 X117.039 Y117.482 E0.02270
G1 X117.737 Y117.312 E0.02253
G1 X118.446 Y117.243 E0.02235
G1 X131.553 Y117.090 E0.41098
G1 X132.577 Y117.195 E0.03228
G1 X133.554 Y117.502 E0.03210
G1 X134.450 Y117.998 E0.03210
G1 X135.228 Y118.663 E0.03210
G1 X135.869 Y119.490 E0.03280
G1 X137.476 Y122.275 E0.10081
G1 X137.810 Y123.046 E0.02636
G1 X138.013 Y123.856 E0.02619
G1 X138.731 Y144.858 E0.65887
G1 X138.317 Y155.353 E0.32933
G1 X138.063 Y156.679 E0.04234
G1 X137.648 Y157.603 E0.03176
G1 X136.147 Y160.204 E0.09415
G1 X135.640 Y160.895 E0.02688
G1 X135.080 Y161.446 E0.02462
G1 X134.437 Y161.906 E0.02479
G1 X133.731 Y162.262 E0.02479
G1 X132.984 Y162.503 E0.02462
G1 X131.980 Y162.638 E0.03176
G1 X128.681 Y162.654 E0.10343
G1 X117.879 Y162.026 E0.33926
G1 X116.636 Y161.778 E0.03974
G1 X115.903 Y161.468 E0.02497
G1 X115.231 Y161.050 E0.02479
G1 X114.632 Y160.534 E0.02479
G1 X114.121 Y159.931 E0.02479
G1 X112.220 Y156.662 E0.11857
G1 X111.912 Y155.856 E0.02706
G1 X111.745 Y155.015 E0.02688
G1 X112.053 Y124.741 E0.94927
G1 X112.126 Y123.970 E0.02427
G1 X112.314 Y123.220 E0.02427
G1 X112.715 Y122.320 E0.03089
G1 X114.223 Y119.708 E0.09457
G1 X114.657 Y119.094 E0.02357
G1 X115.119 Y118.609 E0.02099
G1 F8640
G1 X115.734 Y118.115 E-0.18218
G1 X116.366 Y117.750 E-0.16846
G1 X117.039 Y117.482 E-0.16718
G1 X117.737 Y117.312 E-0.16589
G1 X118.066 Y117.280 E-0.07628
G1 E-0.04000 F2100.00000
G1 Z0.800 F10800.000
G1 X135.646 Y129.504
G1 Z0.200
G1 E0.80000 F2100.00000
G1 F1200
G1 X137.611 Y132.866 E0.12209
G1 X138.046 Y134.488 E0.05264
G1 X138.000 Y135.647 E0.03639
G1 X137.678 Y136.750 E0.03601
G1 X136.039 Y139.633 E0.10398
G1 X137.916 Y142.846 E0.11669
G1 X138.344 Y144.411 E0.05086
G1 X138.303 Y145.639 E0.03854
G1 X137.944 Y146.822 E0.03875
G1 X136.062 Y150.094 E0.11835
G1 X135.896 Y150.291 E0.00808
G1 X137.637 Y153.355 E0.11053
G1 X137.952 Y154.741 E0.04456
G1 X137.908 Y155.767 E0.03220
G1 X137.641 Y156.777 E0.03275
G1 X135.480 Y160.525 E0.13565
G1 X134.740 Y161.262 E0.03276
G1 X133.876 Y161.813 E0.03213
G1 X132.579 Y162.227 E0.04268
G1 X128.523 Y162.282 E0.12720
G1 X127.061 Y161.917 E0.04722
G1 X125.932 Y161.240 E0.04128
G1 X125.188 Y160.484 E0.03328
G1 X124.826 Y159.893 E0.02172
G1 X123.959 Y160.736 E0.03791
G1 X122.891 Y161.335 E0.03840
G1 X121.604 Y161.652 E0.04156
G1 X117.801 Y161.656 E0.11923
G1 X116.566 Y161.366 E0.03976
G1 X115.373 Y160.700 E0.04284
G1 X114.389 Y159.683 E0.04439
G1 X112.526 Y156.466 E0.11657
G1 X112.094 Y154.854 E0.05232
G1 X112.139 Y153.688 E0.03658
G1 X112.479 Y152.541 E0.03753
G1 X114.309 Y149.344 E0.11550
G1 X112.868 Y146.791 E0.09193
G1 X112.545 Y145.511 E0.04139
G1 X112.590 Y144.175 E0.04190
G1 X112.974 Y142.973 E0.03957
G1 X114.639 Y140.101 E0.10409
G1 X112.913 Y137.110 E0.10826
G1 X112.496 Y135.631 E0.04820
G1 X112.516 Y134.400 E0.03858
G1 X112.865 Y133.189 E0.03953
G1 X114.695 Y129.998 E0.11533
G1 X112.714 Y126.479 E0.12663
G1 X112.425 Y125.152 E0.04256
G1 X112.469 Y124.132 E0.03202
G1 X112.736 Y123.121 E0.03277
G1 X114.909 Y119.362 E0.13614
G1 X115.668 Y118.614 E0.03343
G1 X116.590 Y118.046 E0.03394
G1 X117.825 Y117.668 E0.04049
G1 X122.015 Y117.636 E0.13140
G1 X123.312 Y117.980 E0.04206
G1 X124.336 Y118.574 E0.03712
G1 X124.995 Y119.210 E0.02872
G1 X125.736 Y118.470 E0.03285
G1 X126.831 Y117.824 E0.03985
G1 X128.231 Y117.472 E0.04528
G1 X131.992 Y117.474 E0.11792
G1 X133.135 Y117.728 E0.03671
G1 X134.171 Y118.248 E0.03633
G1 X135.188 Y119.168 E0.04300
G1 X137.266 Y122.660 E0.12741
G1 X137.673 Y124.061 E0.04577
G1 X137.668 Y125.346 E0.04029
G1 X137.314 Y126.587 E0.04045
G1 X135.675 Y129.452 E0.10350
G1 X135.179 Y129.559 F10800.000
G1 F1200
G1 X135.358 Y129.760 E0.00842
G1 X137.273 Y133.035 E0.11895
G1 X137.668 Y134.503 E0.04768
G1 X137.631 Y135.565 E0.03331
G1 X137.323 Y136.623 E0.03456
G1 X135.604 Y139.635 E0.10873
G1 X137.578 Y143.016 E0.12275
G1 X137.967 Y144.427 E0.04589
G1 X137.927 Y145.601 E0.03684
G1 X137.590 Y146.690 E0.03573
G1 X135.747 Y149.886 E0.11569
G1 X135.431 Y150.239 E0.01483
G1 X137.277 Y153.468 E0.11662
G1 X137.574 Y154.751 E0.04130
G1 X137.533 Y155.730 E0.03072
G1 X137.284 Y156.655 E0.03002
G1 X135.195 Y160.277 E0.13108
G1 X134.520 Y160.956 E0.03004
G1 X133.694 Y161.481 E0.03067
G1 X132.493 Y161.859 E0.03949
G1 X128.543 Y161.905 E0.12384
G1 X127.182 Y161.559 E0.04405
G1 X126.185 Y160.959 E0.03648
G1 X125.474 Y160.236 E0.03180
G1 X124.841 Y159.179 E0.03862
G1 X124.560 Y159.624 E0.01648
G1 X123.752 Y160.420 E0.03557
G1 X122.729 Y160.993 E0.03676
G1 X121.538 Y161.281 E0.03844
G1 X117.824 Y161.279 E0.11644
G1 X116.681 Y161.006 E0.03685
G1 X115.583 Y160.386 E0.03952
G1 X114.704 Y159.474 E0.03971
G1 X112.864 Y156.298 E0.11508
G1 X112.471 Y154.840 E0.04734
G1 X112.515 Y153.727 E0.03492
G1 X112.834 Y152.671 E0.03460
G1 X114.744 Y149.345 E0.12025
G1 X113.228 Y146.673 E0.09632
G1 X112.917 Y145.445 E0.03972
G1 X112.966 Y144.216 E0.03856
G1 X113.310 Y143.145 E0.03529
G1 X115.074 Y140.101 E0.11030
G1 X113.251 Y136.942 E0.11438
G1 X112.873 Y135.609 E0.04344
G1 X112.892 Y134.432 E0.03690
G1 X113.220 Y133.317 E0.03645
G1 X115.129 Y129.999 E0.12001
G1 X113.075 Y126.369 E0.13078
G1 X112.803 Y125.143 E0.03937
G1 X112.845 Y124.169 E0.03057
G1 X113.094 Y123.244 E0.03005
G1 X115.191 Y119.613 E0.13147
G1 X115.917 Y118.898 E0.03194
G1 X116.765 Y118.381 E0.03113
G1 X117.907 Y118.037 E0.03741
G1 X121.945 Y118.007 E0.12660
G1 X123.145 Y118.319 E0.03889
G1 X124.126 Y118.888 E0.03553
G1 X125.045 Y119.789 E0.04038
G1 X125.229 Y119.511 E0.01048
G1 X125.949 Y118.782 E0.03212
G1 X126.998 Y118.164 E0.03818
G1 X128.299 Y117.843 E0.04198
G1 X131.971 Y117.851 E0.11515
G1 X132.987 Y118.076 E0.03263
G1 X133.978 Y118.573 E0.03476
G1 X134.912 Y119.427 E0.03968
G1 X136.929 Y122.831 E0.12405
G1 X137.303 Y124.138 E0.04264
G1 X137.292 Y125.316 E0.03693
G1 X136.958 Y126.459 E0.03734
G1 X135.209 Y129.507 E0.11020
G1 X134.708 Y129.621 F10800.000
G1 F1200
G1 X135.045 Y129.972 E0.01527
G1 X136.934 Y133.204 E0.11737
G1 X137.290 Y134.518 E0.04271
G1 X137.255 Y135.527 E0.03165
G1 X136.968 Y136.494 E0.03163
G1 X135.122 Y139.716 E0.11642
G1 X135.385 Y139.995 E0.01201
G1 X137.240 Y143.184 E0.11568
G1 X137.589 Y144.445 E0.04102
G1 X137.559 Y145.515 E0.03356
G1 X137.236 Y146.558 E0.03424
G1 X135.431 Y149.678 E0.11303
G1 X134.966 Y150.186 E0.02159
G1 X136.916 Y153.582 E0.12280
G1 X137.196 Y154.763 E0.03807
G1 X137.163 Y155.653 E0.02791
G1 X136.926 Y156.533 E0.02857
G1 X134.911 Y160.028 E0.12649
G1 X134.268 Y160.674 E0.02859
G1 X133.515 Y161.148 E0.02789
G1 X132.408 Y161.490 E0.03632
G1 X128.565 Y161.528 E0.12051
G1 X127.303 Y161.201 E0.04087
G1 X126.437 Y160.678 E0.03172
G1 X125.759 Y159.988 E0.03033
G1 X124.840 Y158.433 E0.05665
G1 X124.275 Y159.375 E0.03445
G1 X123.545 Y160.104 E0.03236
G1 X122.568 Y160.651 E0.03509
G1 X121.473 Y160.908 E0.03527
G1 X117.847 Y160.902 E0.11369
G1 X116.796 Y160.646 E0.03391
G1 X115.794 Y160.072 E0.03620
G1 X115.019 Y159.265 E0.03508
G1 X113.203 Y156.130 E0.11361
G1 X112.849 Y154.824 E0.04242
G1 X112.883 Y153.812 E0.03174
G1 X113.189 Y152.800 E0.03314
G1 X114.986 Y149.677 E0.11299
G1 X115.216 Y149.411 E0.01103
G1 X113.586 Y146.554 E0.10313
G1 X113.295 Y145.432 E0.03634
G1 X113.341 Y144.257 E0.03685
G1 X113.646 Y143.317 E0.03100
G1 X115.536 Y140.057 E0.11815
G1 X115.375 Y139.868 E0.00780
G1 X113.589 Y136.773 E0.11201
G1 X113.250 Y135.585 E0.03874
G1 X113.262 Y134.513 E0.03361
G1 X113.576 Y133.445 E0.03491
G1 X115.403 Y130.280 E0.11460
G1 X115.664 Y129.987 E0.01231
G1 X115.355 Y129.645 E0.01446
G1 X113.437 Y126.258 E0.12204
G1 X113.181 Y125.132 E0.03622
G1 X113.214 Y124.246 E0.02779
G1 X113.452 Y123.366 E0.02860
G1 X115.475 Y119.862 E0.12686
G1 X116.132 Y119.208 E0.02907
G1 X116.940 Y118.716 E0.02964
G1 X117.988 Y118.406 E0.03429
G1 X121.876 Y118.379 E0.12190
G1 X122.979 Y118.659 E0.03569
G1 X123.915 Y119.201 E0.03393
G1 X124.577 Y119.857 E0.02920
G1 X125.020 Y120.583 E0.02666
G1 X125.516 Y119.757 E0.03022
G1 X126.201 Y119.064 E0.03053
G1 X127.117 Y118.522 E0.03337
G1 X128.322 Y118.221 E0.03894
G1 X131.949 Y118.228 E0.11374
G1 X132.880 Y118.438 E0.02993
G1 X133.784 Y118.897 E0.03176
G1 X134.636 Y119.684 E0.03638
G1 X136.591 Y123.001 E0.12071
G1 X136.933 Y124.213 E0.03949
G1 X136.915 Y125.283 E0.03355
G1 X136.604 Y126.330 E0.03425
G1 X134.738 Y129.569 E0.11719
G1 X134.162 Y129.608 F10800.000
G1 F1200
G1 X134.733 Y130.184 E0.02544
G1 X136.596 Y133.372 E0.11579
G1 X136.912 Y134.536 E0.03781
G1 X136.886 Y135.444 E0.02849
G1 X136.613 Y136.366 E0.03015
G1 X134.837 Y139.455 E0.11170
G1 X134.596 Y139.724 E0.01133
G1 X135.072 Y140.207 E0.02127
G1 X136.902 Y143.353 E0.11412
G1 X137.211 Y144.463 E0.03612
G1 X137.183 Y145.478 E0.03185
G1 X136.900 Y146.387 E0.02986
G1 X135.116 Y149.470 E0.11168
G1 X134.463 Y150.170 E0.03001
G1 X134.628 Y150.356 E0.00780
G1 X136.556 Y153.698 E0.12098
G1 X136.818 Y154.776 E0.03478
G1 X136.787 Y155.617 E0.02638
G1 X136.569 Y156.409 E0.02578
G1 X134.625 Y159.781 E0.12203
G1 X134.048 Y160.367 E0.02580
G1 X133.336 Y160.816 E0.02638
G1 X132.326 Y161.121 E0.03310
G1 X128.588 Y161.150 E0.11720
G1 X127.427 Y160.844 E0.03764
G1 X126.656 Y160.370 E0.02840
G1 X126.046 Y159.743 E0.02743
G1 X124.841 Y157.685 E0.07478
G1 X123.992 Y159.125 E0.05243
G1 X123.297 Y159.818 E0.03077
G1 X122.455 Y160.291 E0.03027
G1 X121.451 Y160.531 E0.03236
G1 X117.871 Y160.525 E0.11224
G1 X116.913 Y160.286 E0.03096
G1 X116.046 Y159.791 E0.03132
G1 X115.334 Y159.056 E0.03209
G1 X113.541 Y155.962 E0.11211
G1 X113.227 Y154.808 E0.03749
G1 X113.259 Y153.851 E0.03004
G1 X113.542 Y152.932 E0.03013
G1 X115.301 Y149.884 E0.11036
G1 X115.680 Y149.462 E0.01778
G1 X113.944 Y146.432 E0.10948
G1 X113.672 Y145.416 E0.03298
G1 X113.709 Y144.346 E0.03354
G1 X113.983 Y143.487 E0.02828
G1 X115.742 Y140.438 E0.11037
G1 X116.070 Y140.077 E0.01530
G1 X115.690 Y139.659 E0.01772
G1 X113.927 Y136.605 E0.11056
G1 X113.628 Y135.562 E0.03403
G1 X113.638 Y134.544 E0.03189
G1 X113.930 Y133.575 E0.03173
G1 X115.718 Y130.489 E0.11185
G1 X116.184 Y129.986 E0.02150
G1 X115.671 Y129.438 E0.02355
G1 X113.797 Y126.145 E0.11877
G1 X113.559 Y125.120 E0.03300
G1 X113.590 Y124.283 E0.02628
G1 X113.809 Y123.489 E0.02580
G1 X115.759 Y120.112 E0.12229
G1 X116.382 Y119.492 E0.02756
G1 X117.112 Y119.053 E0.02672
G1 X118.067 Y118.775 E0.03119
G1 X121.853 Y118.756 E0.11869
G1 X122.859 Y119.017 E0.03260
G1 X123.667 Y119.486 E0.02929
G1 X124.294 Y120.107 E0.02767
G1 X125.020 Y121.329 E0.04456
G1 X125.802 Y120.005 E0.04820
G1 X126.452 Y119.346 E0.02902
G1 X127.237 Y118.881 E0.02861
G1 X128.345 Y118.598 E0.03587
G1 X131.927 Y118.605 E0.11230
G1 X132.772 Y118.800 E0.02719
G1 X133.587 Y119.219 E0.02875
G1 X134.358 Y119.940 E0.03309
G1 X136.253 Y123.170 E0.11740
G1 X136.562 Y124.285 E0.03630
G1 X136.539 Y125.247 E0.03016
G1 X136.249 Y126.199 E0.03120
G1 X134.492 Y129.248 E0.11036
G1 X134.202 Y129.564 E0.01342
G1 X133.587 Y129.662 F10800.000
G1 F1200
G1 X133.851 Y129.834 E0.00988
G1 X134.420 Y130.397 E0.02510
G1 X136.258 Y133.541 E0.11422
G1 X136.535 Y134.553 E0.03288
G1 X136.510 Y135.407 E0.02680
G1 X136.258 Y136.235 E0.02712
G1 X134.523 Y139.245 E0.10894
G1 X134.065 Y139.731 E0.02095
G1 X134.759 Y140.419 E0.03065
G1 X136.564 Y143.522 E0.11256
G1 X136.833 Y144.481 E0.03123
G1 X136.807 Y145.441 E0.03012
G1 X136.563 Y146.216 E0.02547
G1 X134.801 Y149.262 E0.11033
G1 X134.235 Y149.860 E0.02581
G1 X133.845 Y150.116 E0.01463
G1 X134.319 Y150.574 E0.02065
G1 X136.197 Y153.816 E0.11748
G1 X136.441 Y154.791 E0.03153
G1 X136.417 Y155.539 E0.02345
G1 X136.212 Y156.286 E0.02431
G1 X134.339 Y159.534 E0.11753
G1 X133.795 Y160.086 E0.02432
G1 X133.159 Y160.482 E0.02347
G1 X132.245 Y160.752 E0.02990
G1 X128.611 Y160.773 E0.11396
G1 X127.599 Y160.507 E0.03281
G1 X126.909 Y160.089 E0.02529
G1 X126.332 Y159.497 E0.02592
G1 X124.841 Y156.933 E0.09298
G1 X123.706 Y158.878 E0.07058
G1 X123.086 Y159.504 E0.02763
G1 X122.338 Y159.931 E0.02701
G1 X121.428 Y160.154 E0.02937
G1 X117.896 Y160.148 E0.11076
G1 X117.033 Y159.928 E0.02793
G1 X116.259 Y159.478 E0.02807
G1 X115.648 Y158.847 E0.02752
G1 X113.880 Y155.794 E0.11064
G1 X113.605 Y154.790 E0.03264
G1 X113.628 Y153.935 E0.02682
G1 X113.880 Y153.102 E0.02729
G1 X115.617 Y150.091 E0.10899
G1 X116.145 Y149.514 E0.02452
G1 X114.301 Y146.308 E0.11596
G1 X114.050 Y145.397 E0.02964
G1 X114.076 Y144.434 E0.03021
G1 X114.320 Y143.658 E0.02551
G1 X116.058 Y140.647 E0.10900
G1 X116.588 Y140.077 E0.02440
G1 X116.005 Y139.451 E0.02684
G1 X114.265 Y136.436 E0.10914
G1 X114.005 Y135.535 E0.02940
G1 X114.008 Y134.625 E0.02855
G1 X114.268 Y133.745 E0.02877
G1 X116.032 Y130.697 E0.11041
G1 X116.707 Y129.985 E0.03075
G1 X115.986 Y129.230 E0.03272
G1 X114.158 Y126.031 E0.11553
G1 X113.936 Y125.106 E0.02982
G1 X113.960 Y124.361 E0.02338
G1 X114.166 Y123.612 E0.02433
G1 X116.044 Y120.360 E0.11778
G1 X116.597 Y119.803 E0.02460
G1 X117.284 Y119.389 E0.02516
G1 X118.145 Y119.145 E0.02803
G1 X121.829 Y119.133 E0.11551
G1 X122.736 Y119.374 E0.02945
G1 X123.454 Y119.798 E0.02613
G1 X124.010 Y120.355 E0.02469
G1 X125.021 Y122.078 E0.06263
G1 X126.088 Y120.251 E0.06635
G1 X126.668 Y119.655 E0.02606
G1 X127.360 Y119.238 E0.02531
G1 X128.369 Y118.975 E0.03272
G1 X131.904 Y118.982 E0.11082
G1 X132.661 Y119.161 E0.02440
G1 X133.388 Y119.541 E0.02573
G1 X134.079 Y120.195 E0.02982
G1 X135.915 Y123.338 E0.11412
G1 X136.190 Y124.356 E0.03306
G1 X136.163 Y125.209 E0.02677
G1 X135.912 Y126.029 E0.02688
G1 X134.177 Y129.039 E0.10895
G1 X133.628 Y129.618 E0.02500
G1 X132.863 Y129.694 F10800.000
G1 F1200
G1 X133.609 Y130.124 E0.02702
G1 X134.108 Y130.610 E0.02181
G1 X135.920 Y133.711 E0.11263
G1 X136.157 Y134.573 E0.02805
G1 X136.141 Y135.325 E0.02359
G1 X135.920 Y136.066 E0.02424
G1 X134.208 Y139.036 E0.10748
G1 X133.446 Y139.826 E0.03441
G1 X133.875 Y140.075 E0.01553
G1 X134.446 Y140.632 E0.02502
G1 X136.226 Y143.692 E0.11099
G1 X136.456 Y144.502 E0.02641
G1 X136.438 Y145.356 E0.02680
G1 X136.226 Y146.046 E0.02263
G1 X134.486 Y149.053 E0.10892
G1 X133.981 Y149.580 E0.02289
G1 X133.220 Y150.055 E0.02812
G1 X134.008 Y150.789 E0.03377
G1 X135.839 Y153.935 E0.11415
G1 X136.063 Y154.807 E0.02820
G1 X136.041 Y155.503 E0.02185
G1 X135.855 Y156.161 E0.02143
G1 X134.052 Y159.288 E0.11319
G1 X133.576 Y159.779 E0.02144
G1 X132.983 Y160.147 E0.02189
G1 X132.166 Y160.383 E0.02665
G1 X128.634 Y160.396 E0.11077
G1 X127.771 Y160.170 E0.02797
G1 X127.126 Y159.780 E0.02363
G1 X126.621 Y159.253 E0.02289
G1 X124.841 Y156.180 E0.11135
G1 X123.419 Y158.632 E0.08888
G1 X122.874 Y159.192 E0.02452
G1 X122.219 Y159.572 E0.02373
G1 X121.405 Y159.777 E0.02632
G1 X117.921 Y159.771 E0.10924
G1 X117.153 Y159.570 E0.02489
