; generated by Slic3r Prusa Edition 1.42.0-alpha5+linux64 on 2019-02-11 at 19:25:16

; 

; external perimeters extrusion width = 0.45mm
; perimeters extrusion width = 0.45mm
; infill extrusion width = 0.45mm
; solid infill extrusion width = 0.45mm
; top infill extrusion width = 0.40mm
; first layer extrusion width = 0.42mm

M73 P0 R58
M73 Q0 S58
M201 X1000 Y1000 Z1000 E5000 ; sets maximum accelerations, mm/sec^2
M203 X200 Y200 Z12 E120 ; sets maximum feedrates, mm/sec
M204 P1250 R1250 T1250 ; sets acceleration (P, T) and retract acceleration (R), mm/sec^2
M205 X8.00 Y8.00 Z0.40 E1.50 ; sets the jerk limits, mm/sec
M205 S0 T0 ; sets the minimum extruding and travel feed rate, mm/sec
M107
M115 U3.5.1 ; tell printer latest fw version
M83  ; extruder relative mode
M104 S215 ; set extruder temp
M140 S60 ; set bed temp
M190 S60 ; wait for bed temp
M109 S215 ; wait for extruder temp
G28 W ; home all without mesh bed level
G80 ; mesh bed leveling
G1 Y-3.0 F1000.0 ; go outside print area
G92 E0.0
G1 X60.0 E9.0  F1000.0 ; intro line
M73 Q0 S58
M73 P0 R58
G1 X100.0 E12.5  F1000.0 ; intro line
G92 E0.0
M221 S95
M900 K30; Filament gcode
G21 ; set units to millimeters
G90 ; use absolute coordinates
M83 ; use relative distances for extrusion
;BEFORE_LAYER_CHANGE
G92 E0.0
;0.2


G1 E-0.80000 F2100.00000
G1 Z0.600 F10800.000
;AFTER_LAYER_CHANGE
;0.2
G1 X79.501 Y69.955
G1 Z0.200
G1 E0.80000 F2100.00000
M204 S1000
G1 F1200
G1 X80.097 Y69.557 E0.02247
G1 X80.789 Y69.372 E0.02247
G1 X98.003 Y69.362 E0.53971
G1 X163.167 Y69.575 E2.04319
G1 X163.662 Y69.641 E0.01567
G1 X164.130 Y69.817 E0.01567
G1 X164.545 Y70.094 E0.01567
G1 X164.887 Y70.458 E0.01567
G1 X165.206 Y71.068 E0.02157
G1 X165.319 Y71.747 E0.02157
G1 X165.239 Y120.451 E1.52708
G1 X159.075 Y144.984 E0.79311
G1 X158.266 Y146.955 E0.06681
G1 X156.869 Y148.508 E0.06551
G1 X156.273 Y148.822 E0.02112
G1 X155.144 Y149.198 E0.03730
G1 X154.629 Y149.276 E0.01635
G1 X132.582 Y149.254 E0.69125
G1 X89.357 Y148.395 E1.35558
G1 X88.764 Y148.294 E0.01885
G1 X87.279 Y147.737 E0.04973
G1 X86.847 Y147.389 E0.01737
G1 X85.819 Y146.217 E0.04889
G1 X85.561 Y145.768 E0.01623
G1 X84.893 Y144.038 E0.05816
G1 X78.746 Y119.552 E0.79157
G1 X78.838 Y71.208 E1.51578
G1 X79.066 Y70.525 E0.02259
G1 X79.465 Y70.003 E0.02059
G1 F8640
G1 X80.097 Y69.557 E-0.17867
G1 X80.789 Y69.372 E-0.16550
G1 X82.590 Y69.371 E-0.41583
G1 E-0.04000 F2100.00000
G1 Z0.800 F10800.000
G1 X85.389 Y86.671
G1 Z0.200
G1 E0.80000 F2100.00000
G1 F1200
G1 X93.611 Y86.671 E0.25781
G1 X89.961 Y101.640 E0.48309
G1 X89.039 Y101.640 E0.02892
G1 X85.403 Y86.729 E0.48122
G1 X85.869 Y87.048 F10800.000
G1 F1200
G1 X93.131 Y87.048 E0.22770
G1 X89.665 Y101.263 E0.45876
G1 X89.335 Y101.263 E0.01034
G1 X85.883 Y87.106 E0.45688
G1 X85.834 Y86.650 F10800.000
G1 F8640
G1 X89.174 Y87.080 E-0.76000
G1 E-0.04000 F2100.00000
G1 Z0.800 F10800.000
G1 X82.372 Y73.644
G1 Z0.200
G1 E0.80000 F2100.00000
G1 F1200
G1 X82.372 Y78.398 E0.14907
G1 X83.680 Y78.398 E0.04101
G1 X83.680 Y79.669 E0.03984
G1 X85.037 Y85.227 E0.17940
G1 X93.963 Y85.227 E0.27988
G1 X95.319 Y79.669 E0.17940
G1 X95.319 Y78.398 E0.03984
G1 X96.626 Y78.398 E0.04098
G1 X96.626 Y73.644 E0.14907
G1 X95.710 Y73.644 E0.02873
G1 X96.547 Y72.138 E0.05401
G1 X97.412 Y72.138 E0.02714
G1 X97.412 Y79.521 E0.23150
G1 X91.442 Y102.729 E0.75136
G1 X91.342 Y103.580 E0.02686
G1 X90.841 Y104.848 E0.04275
G1 X90.164 Y105.613 E0.03202
G1 X89.500 Y105.837 E0.02197
G1 X88.835 Y105.613 E0.02200
G1 X88.158 Y104.848 E0.03202
G1 X87.657 Y103.580 E0.04276
G1 X87.557 Y102.729 E0.02686
G1 X81.586 Y79.521 E0.75135
G1 X81.586 Y72.138 E0.23150
G1 X82.453 Y72.138 E0.02718
G1 X83.289 Y73.644 E0.05400
G1 X82.432 Y73.644 E0.02688
G1 X82.749 Y74.021 F10800.000
G1 F1200
G1 X82.749 Y78.021 E0.12543
G1 X84.057 Y78.021 E0.04101
G1 X84.057 Y79.623 E0.05024
G1 X85.333 Y84.850 E0.16869
G1 X93.667 Y84.850 E0.26131
G1 X94.942 Y79.623 E0.16869
G1 X94.942 Y78.021 E0.05024
G1 X96.249 Y78.021 E0.04098
G1 X96.249 Y74.021 E0.12543
G1 X95.069 Y74.021 E0.03700
G1 X96.325 Y71.761 E0.08106
G1 X97.789 Y71.761 E0.04592
G1 X97.789 Y79.569 E0.24482
G1 X91.813 Y102.798 E0.75206
G1 X91.711 Y103.673 E0.02760
G1 X91.167 Y105.048 E0.04638
G1 X90.380 Y105.939 E0.03726
G1 X89.500 Y106.234 E0.02911
G1 X88.619 Y105.939 E0.02913
G1 X87.832 Y105.048 E0.03726
G1 X87.288 Y103.673 E0.04638
G1 X87.185 Y102.798 E0.02761
G1 X81.209 Y79.569 E0.75205
G1 X81.209 Y71.761 E0.24482
G1 X82.675 Y71.761 E0.04596
G1 X83.930 Y74.021 E0.08105
G1 X82.809 Y74.021 E0.03515
G1 X82.405 Y74.224 F10800.000
G1 F8640
G1 X82.760 Y77.312 E-0.76000
G1 E-0.04000 F2100.00000
G1 Z0.800 F10800.000
G1 X82.758 Y72.919
G1 Z0.200
G1 E0.80000 F2100.00000
G1 F1200
G1 X82.259 Y72.421 E0.02217
G1 X81.869 Y72.421 E0.01227
G1 X81.869 Y72.566 E0.00455
G1 X82.664 Y73.361 E0.03538
G1 X82.129 Y73.361 E0.01683
G1 X81.869 Y73.100 E0.01158
G1 X81.869 Y73.635 E0.01683
G1 X82.089 Y73.856 E0.00980
G1 X82.089 Y74.391 E0.01683
G1 X81.869 Y74.170 E0.00980
G1 X81.869 Y74.705 E0.01683
G1 X82.089 Y74.926 E0.00980
G1 X82.089 Y75.461 E0.01683
G1 X81.869 Y75.240 E0.00980
G1 X81.869 Y75.775 E0.01683
G1 X82.089 Y75.996 E0.00980
G1 X82.089 Y76.531 E0.01683
G1 X81.869 Y76.310 E0.00980
G1 X81.869 Y76.845 E0.01683
G1 X82.089 Y77.066 E0.00980
G1 X82.089 Y77.601 E0.01683
G1 X81.869 Y77.380 E0.00980
G1 X81.869 Y77.915 E0.01683
G1 X82.259 Y78.305 E0.01735
G1 F8640
G1 X81.869 Y77.915 E-0.12734
G1 X81.869 Y77.380 E-0.12353
G1 X82.089 Y77.601 E-0.07193
G1 X82.089 Y77.066 E-0.12353
G1 X81.869 Y76.845 E-0.07193
G1 X81.869 Y76.310 E-0.12353
G1 X82.089 Y76.531 E-0.07193
G1 X82.089 Y76.330 E-0.04629
G1 E-0.04000 F2100.00000
G1 Z0.800 F10800.000
G1 X83.567 Y79.078
G1 Z0.200
G1 E0.80000 F2100.00000
G1 F1200
G1 X83.170 Y78.681 E0.01768
G1 X82.635 Y78.681 E0.01683
G1 X83.397 Y79.444 E0.03393
G1 X83.397 Y79.703 E0.00815
G1 X83.486 Y80.068 E0.01181
G1 X81.869 Y78.450 E0.07194
G1 X81.869 Y78.985 E0.01683
G1 X83.659 Y80.775 E0.07963
G1 X83.832 Y81.483 E0.02291
G1 X81.881 Y79.532 E0.08677
G1 X82.066 Y80.253 E0.02339
G1 X84.004 Y82.191 E0.08622
G1 X84.177 Y82.898 E0.02291
G1 X82.252 Y80.973 E0.08566
G1 X82.437 Y81.693 E0.02339
G1 X84.350 Y83.606 E0.08510
G1 X84.523 Y84.314 E0.02291
G1 X82.622 Y82.413 E0.08454
G1 X82.808 Y83.134 E0.02339
G1 X84.926 Y85.253 E0.09426
G1 F8640
G1 X82.808 Y83.134 E-0.69190
G1 X82.734 Y82.848 E-0.06810
G1 E-0.04000 F2100.00000
G1 Z0.800 F10800.000
G1 X95.124 Y87.961
G1 Z0.200
G1 E0.80000 F2100.00000
G1 F1200
G1 X93.889 Y86.725 E0.05495
G1 X93.784 Y87.155 E0.01393
G1 X94.875 Y88.247 E0.04855
G1 X94.766 Y88.672 E0.01382
G1 X93.679 Y87.586 E0.04835
G1 X93.574 Y88.016 E0.01393
G1 X94.656 Y89.098 E0.04814
G1 X94.547 Y89.523 E0.01382
G1 X93.469 Y88.446 E0.04794
G1 X93.364 Y88.876 E0.01393
G1 X94.437 Y89.949 E0.04773
G1 X94.328 Y90.374 E0.01382
G1 X93.260 Y89.306 E0.04753
G1 X93.155 Y89.736 E0.01393
G1 X94.219 Y90.800 E0.04732
G1 X94.109 Y91.225 E0.01382
G1 X93.050 Y90.166 E0.04712
G1 X92.945 Y90.596 E0.01393
G1 X94.000 Y91.651 E0.04691
G1 X93.890 Y92.076 E0.01382
G1 X92.840 Y91.026 E0.04671
G1 X92.735 Y91.457 E0.01393
G1 X93.781 Y92.502 E0.04650
G1 X93.671 Y92.927 E0.01382
G1 X92.630 Y91.887 E0.04630
G1 X92.526 Y92.317 E0.01393
G1 X93.562 Y93.353 E0.04610
G1 X93.452 Y93.779 E0.01382
G1 X92.421 Y92.747 E0.04589
G1 X92.316 Y93.177 E0.01393
G1 X93.343 Y94.204 E0.04569
G1 X93.233 Y94.630 E0.01382
G1 X92.211 Y93.607 E0.04548
G1 X92.106 Y94.037 E0.01393
G1 X93.124 Y95.055 E0.04528
G1 X93.014 Y95.481 E0.01382
G1 X92.001 Y94.467 E0.04507
G1 X91.896 Y94.897 E0.01393
G1 X92.905 Y95.906 E0.04487
G1 X92.795 Y96.332 E0.01382
G1 X91.791 Y95.328 E0.04466
G1 X91.687 Y95.758 E0.01393
G1 X92.686 Y96.757 E0.04446
G1 X92.577 Y97.183 E0.01382
G1 X91.582 Y96.188 E0.04425
G1 X91.477 Y96.618 E0.01393
G1 X92.467 Y97.608 E0.04405
G1 X92.358 Y98.034 E0.01382
G1 X91.372 Y97.048 E0.04384
G1 X91.267 Y97.478 E0.01393
G1 X92.248 Y98.459 E0.04364
G1 X92.139 Y98.885 E0.01382
G1 X91.162 Y97.908 E0.04343
G1 X91.057 Y98.338 E0.01393
G1 X92.029 Y99.310 E0.04323
G1 X91.920 Y99.736 E0.01382
G1 X90.953 Y98.769 E0.04303
G1 X90.848 Y99.199 E0.01393
G1 X91.810 Y100.161 E0.04282
G1 X91.701 Y100.587 E0.01382
G1 X90.743 Y99.629 E0.04262
G1 X90.638 Y100.059 E0.01393
G1 X91.591 Y101.012 E0.04241
G1 X91.482 Y101.438 E0.01382
G1 X90.533 Y100.489 E0.04221
G1 X90.428 Y100.919 E0.01393
G1 X91.372 Y101.863 E0.04200
G1 X91.263 Y102.289 E0.01382
G1 X90.323 Y101.349 E0.04180
G1 X90.218 Y101.779 E0.01393
G1 X91.158 Y102.719 E0.04180
G1 X91.102 Y103.198 E0.01517
G1 X89.827 Y101.923 E0.05672
G1 X89.292 Y101.923 E0.01683
G1 X91.144 Y103.774 E0.08236
G1 F8640
G1 X89.292 Y101.923 E-0.60460
G1 X89.827 Y101.923 E-0.12353
G1 X89.925 Y102.021 E-0.03187
G1 E-0.04000 F2100.00000
G1 Z0.800 F10800.000
G1 X87.805 Y103.646
G1 Z0.200
G1 E0.80000 F2100.00000
G1 F1200
G1 X89.648 Y105.489 E0.08199
G1 X90.003 Y105.369 E0.01178
G1 X90.031 Y105.337 E0.00136
G1 X87.897 Y103.203 E0.09492
G1 X87.811 Y102.581 E0.01975
G1 X90.282 Y105.053 E0.10996
G1 X90.533 Y104.769 E0.01192
G1 X87.625 Y101.861 E0.12937
G1 X87.440 Y101.141 E0.02339
G1 X90.710 Y104.411 E0.14546
G1 X90.861 Y104.027 E0.01297
G1 X87.255 Y100.420 E0.16044
G1 X87.069 Y99.700 E0.02339
G1 X88.664 Y101.295 E0.07093
G1 X88.491 Y100.587 E0.02291
G1 X86.884 Y98.980 E0.07149
G1 X86.699 Y98.260 E0.02339
G1 X88.319 Y99.880 E0.07206
G1 X88.146 Y99.172 E0.02291
G1 X86.513 Y97.539 E0.07263
G1 X86.328 Y96.819 E0.02339
G1 X87.974 Y98.465 E0.07319
G1 X87.801 Y97.757 E0.02291
G1 X86.143 Y96.099 E0.07376
G1 X85.958 Y95.379 E0.02339
G1 X87.628 Y97.049 E0.07433
G1 X87.456 Y96.342 E0.02291
G1 X85.772 Y94.658 E0.07490
G1 X85.587 Y93.938 E0.02339
G1 X87.283 Y95.634 E0.07546
G1 X87.111 Y94.927 E0.02291
G1 X85.402 Y93.218 E0.07603
G1 X85.216 Y92.497 E0.02339
G1 X86.938 Y94.219 E0.07660
G1 X86.766 Y93.512 E0.02291
G1 X85.031 Y91.777 E0.07717
G1 X84.846 Y91.057 E0.02339
G1 X86.593 Y92.804 E0.07773
G1 X86.421 Y92.097 E0.02291
G1 X84.660 Y90.337 E0.07830
G1 X84.475 Y89.616 E0.02339
G1 X86.248 Y91.389 E0.07887
G1 X86.076 Y90.682 E0.02291
G1 X84.290 Y88.896 E0.07943
G1 X84.105 Y88.176 E0.02339
G1 X85.903 Y89.974 E0.08000
G1 X85.731 Y89.267 E0.02291
G1 X83.919 Y87.455 E0.08057
G1 X83.734 Y86.735 E0.02339
G1 X85.558 Y88.559 E0.08114
G1 X85.385 Y87.852 E0.02291
G1 X83.549 Y86.015 E0.08170
G1 X83.363 Y85.295 E0.02339
G1 X85.213 Y87.144 E0.08227
G1 X85.040 Y86.437 E0.02291
G1 X83.178 Y84.574 E0.08284
G1 X82.993 Y83.854 E0.02339
G1 X85.527 Y86.388 E0.11273
G1 X86.062 Y86.388 E0.01683
G1 X85.184 Y85.510 E0.03906
G1 X85.719 Y85.510 E0.01683
G1 X86.597 Y86.388 E0.03906
G1 X87.132 Y86.388 E0.01683
G1 X86.254 Y85.510 E0.03906
G1 X86.789 Y85.510 E0.01683
G1 X87.667 Y86.388 E0.03906
G1 X88.202 Y86.388 E0.01683
G1 X87.324 Y85.510 E0.03906
G1 X87.859 Y85.510 E0.01683
G1 X88.737 Y86.388 E0.03906
G1 X89.272 Y86.388 E0.01683
G1 X88.394 Y85.510 E0.03906
G1 X88.929 Y85.510 E0.01683
G1 X89.807 Y86.388 E0.03906
G1 X90.342 Y86.388 E0.01683
G1 X89.464 Y85.510 E0.03906
G1 X89.999 Y85.510 E0.01683
G1 X90.877 Y86.388 E0.03906
G1 X91.412 Y86.388 E0.01683
G1 X90.534 Y85.510 E0.03906
G1 X91.069 Y85.510 E0.01683
G1 X91.947 Y86.388 E0.03906
G1 X92.482 Y86.388 E0.01683
G1 X91.604 Y85.510 E0.03906
G1 X92.139 Y85.510 E0.01683
G1 X93.017 Y86.388 E0.03906
G1 X93.552 Y86.388 E0.01683
G1 X92.674 Y85.510 E0.03906
G1 X93.209 Y85.510 E0.01683
G1 X95.094 Y87.396 E0.08388
G1 X95.204 Y86.970 E0.01382
G1 X93.744 Y85.510 E0.06495
G1 X94.185 Y85.510 E0.01388
G1 X94.203 Y85.435 E0.00244
G1 X95.313 Y86.545 E0.04937
G1 X95.423 Y86.119 E0.01382
G1 X94.308 Y85.005 E0.04957
G1 X94.413 Y84.575 E0.01392
G1 X95.532 Y85.694 E0.04978
G1 X95.642 Y85.268 E0.01382
G1 X94.518 Y84.145 E0.04998
G1 X94.623 Y83.715 E0.01392
G1 X95.751 Y84.843 E0.05018
G1 X95.861 Y84.417 E0.01382
G1 X94.728 Y83.285 E0.05038
G1 X94.833 Y82.855 E0.01392
G1 X95.970 Y83.992 E0.05058
G1 X96.079 Y83.566 E0.01382
G1 X94.938 Y82.424 E0.05078
G1 X95.043 Y81.994 E0.01392
G1 X96.189 Y83.141 E0.05099
G1 X96.298 Y82.715 E0.01382
G1 X95.148 Y81.564 E0.05119
G1 X95.253 Y81.134 E0.01392
G1 X96.408 Y82.290 E0.05139
G1 X96.517 Y81.864 E0.01382
G1 X95.358 Y80.704 E0.05159
G1 X95.463 Y80.274 E0.01392
G1 X96.627 Y81.439 E0.05179
G1 X96.736 Y81.013 E0.01382
G1 X95.567 Y79.844 E0.05199
G1 X95.602 Y79.703 E0.00458
G1 X95.602 Y79.344 E0.01130
G1 X96.846 Y80.587 E0.05533
G1 X96.955 Y80.162 E0.01382
G1 X95.602 Y78.809 E0.06020
G1 X95.602 Y78.681 E0.00402
G1 X96.009 Y78.681 E0.01281
G1 X97.065 Y79.736 E0.04695
G1 X97.129 Y79.485 E0.00815
G1 X97.129 Y79.266 E0.00690
G1 X96.544 Y78.681 E0.02603
G1 X96.909 Y78.681 E0.01148
G1 X96.909 Y78.511 E0.00535
G1 X97.129 Y78.731 E0.00980
G1 X97.129 Y78.196 E0.01683
G1 X96.909 Y77.976 E0.00980
G1 X96.909 Y77.441 E0.01683
G1 X97.129 Y77.661 E0.00980
G1 X97.129 Y77.126 E0.01683
G1 X96.909 Y76.906 E0.00980
G1 X96.909 Y76.371 E0.01683
G1 X97.129 Y76.591 E0.00980
G1 X97.129 Y76.056 E0.01683
G1 X96.909 Y75.836 E0.00980
G1 X96.909 Y75.301 E0.01683
G1 X97.129 Y75.521 E0.00980
G1 X97.129 Y74.986 E0.01683
G1 X96.909 Y74.766 E0.00980
G1 X96.909 Y74.231 E0.01683
G1 X97.299 Y74.621 E0.01735
G1 F8640
G1 X96.909 Y74.231 E-0.12734
G1 X96.909 Y74.766 E-0.12353
G1 X97.129 Y74.986 E-0.07193
G1 X97.129 Y75.521 E-0.12353
G1 X96.909 Y75.301 E-0.07193
G1 X96.909 Y75.836 E-0.12353
G1 X97.129 Y76.056 E-0.07193
G1 X97.129 Y76.257 E-0.04629
G1 E-0.04000 F2100.00000
G1 Z0.800 F10800.000
G1 X97.299 Y73.016
G1 Z0.200
G1 E0.80000 F2100.00000
G1 F1200
G1 X96.710 Y72.427 E0.02621
G1 X96.519 Y72.771 E0.01238
G1 X97.129 Y73.381 E0.02716
G1 X97.129 Y73.916 E0.01683
G1 X96.203 Y72.990 E0.04122
G1 F8640
G1 X97.129 Y73.916 E-0.30255
G1 X97.129 Y73.381 E-0.12353
G1 X96.519 Y72.771 E-0.19941
G1 X96.710 Y72.427 E-0.09084
G1 X96.843 Y72.560 E-0.04366
G1 E-0.04000 F2100.00000
G1 Z0.800 F10800.000
G1 X106.822 Y87.026
G1 Z0.200
G1 E0.80000 F2100.00000
G1 F1200
G1 X115.044 Y87.026 E0.25781
G1 X111.394 Y101.995 E0.48309
G1 X110.472 Y101.995 E0.02892
G1 X106.836 Y87.084 E0.48122
G1 X107.302 Y87.403 F10800.000
G1 F1200
G1 X114.564 Y87.403 E0.22770
G1 X111.098 Y101.618 E0.45876
G1 X110.768 Y101.618 E0.01034
G1 X107.316 Y87.461 E0.45688
G1 X107.267 Y87.005 F10800.000
G1 F8640
G1 X110.607 Y87.435 E-0.76000
G1 E-0.04000 F2100.00000
G1 Z0.800 F10800.000
G1 X103.805 Y73.999
G1 Z0.200
G1 E0.80000 F2100.00000
G1 F1200
G1 X103.805 Y78.753 E0.14907
G1 X105.113 Y78.753 E0.04101
G1 X105.113 Y80.024 E0.03984
G1 X106.470 Y85.582 E0.17940
M73 Q1 S57
G1 X115.396 Y85.582 E0.27988
M73 P1 R57
G1 X116.752 Y80.024 E0.17940
G1 X116.752 Y78.753 E0.03984
G1 X118.059 Y78.753 E0.04098
G1 X118.059 Y73.999 E0.14907
G1 X117.143 Y73.999 E0.02873
G1 X117.980 Y72.493 E0.05401
G1 X118.845 Y72.493 E0.02714
G1 X118.845 Y79.876 E0.23150
G1 X112.875 Y103.084 E0.75136
G1 X112.775 Y103.935 E0.02686
G1 X112.274 Y105.203 E0.04275
G1 X111.598 Y105.968 E0.03202
G1 X110.933 Y106.192 E0.02197
G1 X110.268 Y105.968 E0.02200
G1 X109.591 Y105.203 E0.03202
G1 X109.090 Y103.935 E0.04276
G1 X108.990 Y103.084 E0.02686
G1 X103.019 Y79.876 E0.75135
G1 X103.019 Y72.493 E0.23150
G1 X103.886 Y72.493 E0.02718
G1 X104.723 Y73.999 E0.05400
G1 X103.865 Y73.999 E0.02688
G1 X104.182 Y74.376 F10800.000
G1 F1200
G1 X104.182 Y78.376 E0.12543
G1 X105.490 Y78.376 E0.04101
G1 X105.490 Y79.979 E0.05024
G1 X106.766 Y85.205 E0.16869
G1 X115.100 Y85.205 E0.26131
G1 X116.375 Y79.979 E0.16869
G1 X116.375 Y78.376 E0.05024
G1 X117.682 Y78.376 E0.04098
G1 X117.682 Y74.376 E0.12543
G1 X116.502 Y74.376 E0.03700
G1 X117.758 Y72.116 E0.08106
G1 X119.222 Y72.116 E0.04592
G1 X119.222 Y79.924 E0.24482
G1 X113.246 Y103.154 E0.75206
G1 X113.144 Y104.028 E0.02760
G1 X112.601 Y105.404 E0.04638
G1 X111.813 Y106.294 E0.03726
G1 X110.933 Y106.589 E0.02911
G1 X110.052 Y106.294 E0.02913
G1 X109.265 Y105.404 E0.03726
G1 X108.722 Y104.028 E0.04638
G1 X108.618 Y103.153 E0.02761
G1 X102.642 Y79.924 E0.75205
G1 X102.642 Y72.116 E0.24482
G1 X104.108 Y72.116 E0.04596
G1 X105.363 Y74.376 E0.08105
G1 X104.242 Y74.376 E0.03515
G1 X103.838 Y74.580 F10800.000
G1 F8640
G1 X104.193 Y77.667 E-0.76000
G1 E-0.04000 F2100.00000
G1 Z0.800 F10800.000
G1 X104.191 Y73.274
G1 Z0.200
