; generated by PrusaSlicer 2.2.0+ on 2020-12-01 at 09:00:12 UTC

; 

; external perimeters extrusion width = 0.60mm
; perimeters extrusion width = 0.50mm
; infill extrusion width = 0.50mm
; solid infill extrusion width = 0.50mm
; top infill extrusion width = 0.45mm
; first layer extrusion width = 0.42mm

M73 P0 R46
M73 Q0 S46
M201 X1000 Y1000 Z1000 E5000 ; sets maximum accelerations, mm/sec^2
M203 X200 Y200 Z12 E120 ; sets maximum feedrates, mm/sec
M204 P1250 R1250 T1250 ; sets acceleration (P, T) and retract acceleration (R), mm/sec^2
M205 X8.00 Y8.00 Z0.40 E4.50 ; sets the jerk limits, mm/sec
M205 S0 T0 ; sets the minimum extruding and travel feed rate, mm/sec
M107
M862.3 P "MK3" ; printer model check
M862.1 P0.4 ; nozzle diameter check
M115 U3.8.1 ; tell printer latest fw version
G90 ; use absolute coordinates
M83 ; extruder relative mode
M104 S215 ; set extruder temp
M140 S60 ; set bed temp
M190 S60 ; wait for bed temp
M109 S215 ; wait for extruder temp
G28 W ; home all without mesh bed level
G80 ; mesh bed leveling
G1 Y-3.0 F1000.0 ; go outside print area
G92 E0.0
G1 X60.0 E9.0 F1000.0 ; intro line
M73 Q0 S46
M73 P0 R46
G1 X100.0 E12.5 F1000.0 ; intro line
G92 E0.0
M221 S95
G21 ; set units to millimeters
G90 ; use absolute coordinates
M83 ; use relative distances for extrusion
M900 K30 ; Filament gcode
;BEFORE_LAYER_CHANGE
G92 E0.0
;0.2


G1 E-0.80000 F2100.00000
G1 Z0.600 F10800.000
;AFTER_LAYER_CHANGE
;0.2
G1 X104.725 Y36.310
G1 Z0.200
G1 E0.80000 F2100.00000
M204 S1000
G1 F1200.000
G1 X105.041 Y35.654 E0.02284
G1 X105.540 Y35.124 E0.02284
G1 X106.181 Y34.769 E0.02296
G1 X106.895 Y34.625 E0.02284
G1 X143.004 Y34.623 E1.13217
G1 X143.821 Y34.769 E0.02602
G1 X144.535 Y35.185 E0.02590
G1 X145.063 Y35.820 E0.02590
G1 X145.343 Y36.597 E0.02590
G1 X153.370 Y94.911 E1.84565
G1 X153.377 Y170.004 E2.35447
G1 X153.275 Y170.691 E0.02178
G1 X153.001 Y171.284 E0.02048
G1 X150.793 Y174.561 E0.12389
G1 X150.077 Y175.119 E0.02849
G1 X149.207 Y175.368 E0.02837
G1 X100.996 Y175.377 E1.51161
G1 X100.309 Y175.275 E0.02178
G1 X99.612 Y174.930 E0.02437
G1 X99.064 Y174.379 E0.02437
G1 X96.936 Y171.179 E0.12049
G1 X96.717 Y170.661 E0.01763
G1 X96.625 Y170.110 E0.01752
G1 X96.624 Y94.822 E2.36062
G1 X104.717 Y36.370 E1.85020
G1 F8640.000
G1 X105.041 Y35.654 E-0.18144
G1 X105.540 Y35.124 E-0.16820
G1 X106.181 Y34.769 E-0.16907
G1 X106.895 Y34.625 E-0.16820
G1 X107.211 Y34.625 E-0.07309
G1 E-0.04000 F2100.00000
G1 Z0.800 F10800.000
G1 X137.482 Y147.389
G1 Z0.200
G1 E0.80000 F2100.00000
G1 F1200.000
G1 X137.921 Y147.270 E0.01426
G1 X138.368 Y147.181 E0.01426
G1 X138.819 Y147.121 E0.01426
G1 X139.273 Y147.091 E0.01426
G1 X139.727 Y147.091 E0.01426
G1 X140.181 Y147.121 E0.01426
G1 X140.632 Y147.181 E0.01426
G1 X141.079 Y147.270 E0.01426
G1 X141.501 Y147.384 E0.01372
G1 X141.948 Y147.535 E0.01479
G1 X142.368 Y147.711 E0.01429
G1 X142.776 Y147.913 E0.01426
G1 X143.169 Y148.142 E0.01426
G1 X143.547 Y148.396 E0.01426
G1 X143.906 Y148.674 E0.01426
G1 X144.247 Y148.975 E0.01426
G1 X144.567 Y149.299 E0.01426
G1 X144.866 Y149.642 E0.01426
G1 X145.141 Y150.005 E0.01426
G1 X145.391 Y150.384 E0.01426
G1 X145.617 Y150.780 E0.01426
G1 X145.815 Y151.189 E0.01426
G1 X145.986 Y151.610 E0.01426
G1 X146.129 Y152.042 E0.01426
G1 X146.249 Y152.502 E0.01488
G1 X146.287 Y152.775 E0.00865
G1 X146.279 Y153.070 E0.00927
G1 X146.223 Y153.361 E0.00927
G1 X146.119 Y153.637 E0.00927
G1 X145.972 Y153.894 E0.00927
G1 X145.784 Y154.122 E0.00927
G1 X145.561 Y154.316 E0.00927
G1 X145.310 Y154.471 E0.00927
G1 X145.036 Y154.583 E0.00927
G1 X144.747 Y154.648 E0.00927
G1 X144.452 Y154.664 E0.00927
G1 X144.158 Y154.632 E0.00927
G1 X143.874 Y154.552 E0.00927
G1 X143.606 Y154.426 E0.00927
G1 X143.363 Y154.258 E0.00927
G1 X143.151 Y154.052 E0.00927
G1 X142.976 Y153.814 E0.00927
G1 X142.839 Y153.543 E0.00952
G1 X142.593 Y152.747 E0.02611
G1 X142.348 Y152.260 E0.01710
G1 X142.026 Y151.820 E0.01710
G1 X141.638 Y151.437 E0.01710
G1 X141.192 Y151.123 E0.01710
G1 X140.951 Y150.995 E0.00856
G1 X140.442 Y150.799 E0.01710
G1 X139.908 Y150.688 E0.01710
G1 X139.364 Y150.666 E0.01710
G1 X138.822 Y150.732 E0.01710
G1 X138.558 Y150.799 E0.00856
G1 X138.049 Y150.995 E0.01710
G1 X137.579 Y151.271 E0.01710
G1 X137.160 Y151.620 E0.01710
G1 X136.804 Y152.033 E0.01710
G1 X136.520 Y152.499 E0.01710
G1 X136.313 Y153.008 E0.01723
G1 X136.161 Y153.543 E0.01743
G1 X136.024 Y153.814 E0.00952
G1 X135.849 Y154.052 E0.00927
G1 X135.637 Y154.258 E0.00927
G1 X135.394 Y154.426 E0.00927
G1 X135.126 Y154.552 E0.00927
G1 X134.842 Y154.632 E0.00927
G1 X134.548 Y154.664 E0.00927
G1 X134.253 Y154.648 E0.00927
G1 X133.964 Y154.583 E0.00927
G1 X133.690 Y154.471 E0.00927
G1 X133.439 Y154.316 E0.00927
G1 X133.216 Y154.122 E0.00927
G1 X133.028 Y153.894 E0.00927
G1 X132.881 Y153.637 E0.00927
G1 X132.777 Y153.361 E0.00927
G1 X132.721 Y153.070 E0.00927
G1 X132.713 Y152.775 E0.00927
G1 X132.751 Y152.502 E0.00865
G1 X132.871 Y152.042 E0.01488
G1 X133.014 Y151.610 E0.01426
G1 X133.185 Y151.189 E0.01426
G1 X133.383 Y150.780 E0.01426
G1 X133.609 Y150.384 E0.01426
G1 X133.859 Y150.005 E0.01426
G1 X134.134 Y149.642 E0.01426
G1 X134.433 Y149.299 E0.01426
G1 X134.753 Y148.975 E0.01426
G1 X135.094 Y148.674 E0.01426
G1 X135.453 Y148.396 E0.01426
G1 X135.831 Y148.142 E0.01426
G1 X136.209 Y147.922 E0.01372
G1 X136.631 Y147.711 E0.01479
G1 X137.052 Y147.536 E0.01429
G1 X137.425 Y147.408 E0.01238
G1 X137.547 Y147.765 F10800.000
G1 F1200.000
G1 X138.008 Y147.637 E0.01498
G1 X138.429 Y147.553 E0.01349
G1 X138.856 Y147.497 E0.01349
G1 X139.285 Y147.468 E0.01349
G1 X139.715 Y147.468 E0.01349
G1 X140.144 Y147.497 E0.01349
G1 X140.571 Y147.553 E0.01349
G1 X140.992 Y147.637 E0.01349
G1 X141.391 Y147.745 E0.01296
G1 X141.815 Y147.888 E0.01401
G1 X142.212 Y148.054 E0.01349
G1 X142.597 Y148.245 E0.01349
G1 X142.969 Y148.461 E0.01349
G1 X143.326 Y148.702 E0.01349
G1 X143.666 Y148.965 E0.01349
G1 X143.988 Y149.250 E0.01349
G1 X144.291 Y149.555 E0.01349
G1 X144.573 Y149.880 E0.01349
G1 X144.833 Y150.223 E0.01349
G1 X145.070 Y150.582 E0.01349
G1 X145.283 Y150.955 E0.01349
G1 X145.470 Y151.342 E0.01349
G1 X145.632 Y151.741 E0.01349
G1 X145.768 Y152.149 E0.01349
G1 X145.878 Y152.575 E0.01381
G1 X145.909 Y152.796 E0.00699
G1 X145.903 Y153.029 E0.00731
G1 X145.858 Y153.258 E0.00731
G1 X145.777 Y153.476 E0.00731
G1 X145.661 Y153.678 E0.00731
G1 X145.513 Y153.858 E0.00731
G1 X145.337 Y154.012 E0.00731
G1 X145.138 Y154.134 E0.00731
G1 X144.922 Y154.222 E0.00731
G1 X144.695 Y154.273 E0.00731
G1 X144.462 Y154.286 E0.00731
G1 X144.231 Y154.260 E0.00731
G1 X144.006 Y154.197 E0.00731
G1 X143.795 Y154.098 E0.00731
G1 X143.604 Y153.965 E0.00731
G1 X143.436 Y153.803 E0.00731
G1 X143.298 Y153.615 E0.00731
G1 X143.192 Y153.405 E0.00740
G1 X143.046 Y152.893 E0.01669
G1 X142.943 Y152.605 E0.00957
G1 X142.670 Y152.063 E0.01903
G1 X142.312 Y151.573 E0.01903
G1 X141.879 Y151.147 E0.01903
G1 X141.383 Y150.798 E0.01903
G1 X141.115 Y150.655 E0.00952
G1 X140.549 Y150.436 E0.01903
G1 X139.955 Y150.313 E0.01903
G1 X139.348 Y150.288 E0.01903
G1 X139.045 Y150.313 E0.00952
G1 X138.451 Y150.436 E0.01903
G1 X137.885 Y150.655 E0.01903
G1 X137.362 Y150.963 E0.01903
G1 X136.896 Y151.351 E0.01903
G1 X136.499 Y151.811 E0.01903
G1 X136.183 Y152.329 E0.01903
G1 X135.954 Y152.893 E0.01908
G1 X135.808 Y153.405 E0.01669
G1 X135.702 Y153.615 E0.00740
G1 X135.564 Y153.803 E0.00731
G1 X135.396 Y153.965 E0.00731
G1 X135.205 Y154.098 E0.00731
G1 X134.994 Y154.197 E0.00731
G1 X134.769 Y154.260 E0.00731
G1 X134.538 Y154.286 E0.00731
G1 X134.305 Y154.273 E0.00731
G1 X134.078 Y154.222 E0.00731
G1 X133.862 Y154.134 E0.00731
G1 X133.663 Y154.012 E0.00731
G1 X133.487 Y153.858 E0.00731
G1 X133.339 Y153.678 E0.00731
G1 X133.223 Y153.476 E0.00731
G1 X133.142 Y153.258 E0.00731
G1 X133.097 Y153.029 E0.00731
G1 X133.091 Y152.796 E0.00731
G1 X133.122 Y152.575 E0.00699
G1 X133.232 Y152.149 E0.01381
G1 X133.368 Y151.741 E0.01349
G1 X133.530 Y151.342 E0.01349
G1 X133.717 Y150.955 E0.01349
G1 X133.930 Y150.582 E0.01349
G1 X134.167 Y150.223 E0.01349
G1 X134.427 Y149.880 E0.01349
G1 X134.709 Y149.555 E0.01349
G1 X135.012 Y149.250 E0.01349
G1 X135.334 Y148.965 E0.01349
G1 X135.674 Y148.702 E0.01349
G1 X136.031 Y148.461 E0.01349
G1 X136.388 Y148.254 E0.01296
G1 X136.788 Y148.054 E0.01401
G1 X137.490 Y147.784 E0.02360
G1 X137.631 Y147.374 F10800.000
G1 F8640.000
G1 X138.008 Y147.637 E-0.12411
G1 X138.429 Y147.553 E-0.09932
G1 X138.856 Y147.497 E-0.09932
G1 X139.285 Y147.468 E-0.09932
G1 X139.715 Y147.468 E-0.09932
G1 X140.144 Y147.497 E-0.09932
G1 X140.571 Y147.553 E-0.09932
G1 X140.740 Y147.587 E-0.03998
G1 E-0.04000 F2100.00000
G1 Z0.800 F10800.000
G1 X135.984 Y158.254
G1 Z0.200
G1 E0.80000 F2100.00000
G1 F1200.000
G1 X136.300 Y158.329 E0.01017
G1 X136.604 Y158.440 E0.01017
G1 X136.894 Y158.585 E0.01017
G1 X137.165 Y158.763 E0.01017
G1 X137.414 Y158.972 E0.01017
G1 X137.636 Y159.208 E0.01017
G1 X137.830 Y159.468 E0.01017
G1 X137.992 Y159.749 E0.01017
G1 X138.120 Y160.046 E0.01017
G1 X138.213 Y160.357 E0.01017
G1 X138.270 Y160.676 E0.01017
G1 X138.288 Y161.000 E0.01017
G1 X138.270 Y161.324 E0.01017
G1 X138.213 Y161.643 E0.01017
G1 X138.120 Y161.954 E0.01017
G1 X137.992 Y162.251 E0.01017
G1 X137.840 Y162.515 E0.00955
G1 X137.638 Y162.791 E0.01071
G1 X137.414 Y163.028 E0.01024
G1 X137.165 Y163.237 E0.01017
G1 X136.894 Y163.415 E0.01017
G1 X136.604 Y163.560 E0.01017
G1 X136.300 Y163.671 E0.01017
G1 X135.984 Y163.746 E0.01017
G1 X135.662 Y163.784 E0.01017
G1 X135.338 Y163.784 E0.01017
G1 X135.016 Y163.746 E0.01017
G1 X134.700 Y163.671 E0.01017
G1 X134.396 Y163.560 E0.01017
G1 X134.106 Y163.415 E0.01017
G1 X133.835 Y163.237 E0.01017
G1 X133.586 Y163.028 E0.01017
G1 X133.364 Y162.792 E0.01017
G1 X133.170 Y162.532 E0.01017
G1 X133.008 Y162.251 E0.01017
G1 X132.880 Y161.954 E0.01017
G1 X132.787 Y161.643 E0.01017
G1 X132.730 Y161.324 E0.01017
G1 X132.712 Y161.000 E0.01017
G1 X132.730 Y160.676 E0.01017
G1 X132.787 Y160.357 E0.01017
G1 X132.880 Y160.046 E0.01017
G1 X133.008 Y159.749 E0.01017
G1 X133.170 Y159.468 E0.01017
G1 X133.364 Y159.208 E0.01017
G1 X133.586 Y158.972 E0.01017
G1 X133.835 Y158.763 E0.01017
G1 X134.106 Y158.585 E0.01017
G1 X134.378 Y158.448 E0.00955
G1 X134.698 Y158.329 E0.01071
G1 X135.016 Y158.254 E0.01024
G1 X135.338 Y158.216 E0.01017
G1 X135.662 Y158.216 E0.01017
G1 X135.925 Y158.247 E0.00829
G1 X135.881 Y158.622 F10800.000
G1 F1200.000
G1 X136.191 Y158.691 E0.00998
G1 X136.455 Y158.786 E0.00879
G1 X136.705 Y158.912 E0.00879
G1 X136.940 Y159.066 E0.00879
G1 X137.154 Y159.247 E0.00879
G1 X137.347 Y159.450 E0.00879
G1 X137.514 Y159.675 E0.00879
G1 X137.654 Y159.918 E0.00879
G1 X137.765 Y160.175 E0.00879
G1 X137.846 Y160.444 E0.00879
G1 X137.894 Y160.720 E0.00879
G1 X137.911 Y161.000 E0.00879
G1 X137.894 Y161.280 E0.00879
G1 X137.846 Y161.556 E0.00879
G1 X137.765 Y161.825 E0.00879
G1 X137.654 Y162.082 E0.00879
G1 X137.523 Y162.309 E0.00822
G1 X137.347 Y162.549 E0.00933
G1 X137.154 Y162.753 E0.00881
G1 X136.940 Y162.934 E0.00879
G1 X136.705 Y163.088 E0.00879
G1 X136.455 Y163.214 E0.00879
G1 X136.191 Y163.309 E0.00879
G1 X135.919 Y163.374 E0.00879
G1 X135.640 Y163.407 E0.00879
G1 X135.360 Y163.407 E0.00879
G1 X135.081 Y163.374 E0.00879
G1 X134.809 Y163.309 E0.00879
G1 X134.545 Y163.214 E0.00879
G1 X134.295 Y163.088 E0.00879
G1 X134.060 Y162.934 E0.00879
G1 X133.846 Y162.753 E0.00879
G1 X133.653 Y162.550 E0.00879
G1 X133.486 Y162.325 E0.00879
G1 X133.346 Y162.082 E0.00879
G1 X133.235 Y161.825 E0.00879
G1 X133.154 Y161.556 E0.00879
G1 X133.106 Y161.280 E0.00879
G1 X133.089 Y161.000 E0.00879
G1 X133.106 Y160.720 E0.00879
G1 X133.154 Y160.444 E0.00879
G1 X133.235 Y160.175 E0.00879
G1 X133.346 Y159.918 E0.00879
G1 X133.486 Y159.675 E0.00879
G1 X133.653 Y159.450 E0.00879
G1 X133.846 Y159.247 E0.00879
G1 X134.060 Y159.066 E0.00879
G1 X134.295 Y158.912 E0.00879
G1 X134.529 Y158.795 E0.00822
G1 X134.808 Y158.691 E0.00933
G1 X135.081 Y158.626 E0.00881
G1 X135.360 Y158.593 E0.00879
G1 X135.640 Y158.593 E0.00879
G1 X135.821 Y158.615 E0.00572
G1 X136.083 Y158.376 F10800.000
G1 F8640.000
G1 X136.191 Y158.691 E-0.08725
G1 X136.455 Y158.786 E-0.06473
G1 X136.705 Y158.912 E-0.06473
G1 X136.940 Y159.066 E-0.06473
G1 X137.154 Y159.247 E-0.06473
G1 X137.347 Y159.450 E-0.06473
G1 X137.514 Y159.675 E-0.06473
G1 X137.654 Y159.918 E-0.06473
G1 X137.765 Y160.175 E-0.06473
G1 X137.846 Y160.444 E-0.06473
G1 X137.894 Y160.720 E-0.06473
G1 X137.901 Y160.830 E-0.02543
G1 E-0.04000 F2100.00000
G1 Z0.800 F10800.000
G1 X138.088 Y157.099
G1 Z0.200
G1 E0.80000 F2100.00000
G1 F1200.000
G1 X137.926 Y156.852 E0.00927
G1 X137.807 Y156.581 E0.00927
G1 X137.735 Y156.295 E0.00927
G1 X137.710 Y156.000 E0.00927
G1 X137.735 Y155.705 E0.00927
G1 X137.807 Y155.419 E0.00927
G1 X137.926 Y155.148 E0.00927
G1 X138.088 Y154.901 E0.00927
G1 X138.288 Y154.683 E0.00927
G1 X138.521 Y154.502 E0.00927
G1 X138.754 Y154.375 E0.00832
G1 X139.055 Y154.266 E0.01004
G1 X139.352 Y154.216 E0.00944
G1 X139.648 Y154.216 E0.00927
G1 X139.939 Y154.265 E0.00927
G1 X140.219 Y154.361 E0.00927
G1 X140.479 Y154.502 E0.00927
G1 X140.712 Y154.683 E0.00927
G1 X140.892 Y154.878 E0.00832
G1 X141.072 Y155.143 E0.01004
G1 X141.193 Y155.419 E0.00944
G1 X141.265 Y155.705 E0.00927
G1 X141.290 Y156.000 E0.00927
G1 X141.265 Y156.295 E0.00927
G1 X141.193 Y156.581 E0.00927
G1 X141.074 Y156.852 E0.00927
G1 X140.912 Y157.099 E0.00927
G1 X140.712 Y157.317 E0.00927
G1 X140.479 Y157.498 E0.00927
G1 X140.246 Y157.625 E0.00832
G1 X139.945 Y157.734 E0.01004
G1 X139.648 Y157.784 E0.00944
G1 X139.352 Y157.784 E0.00927
G1 X139.061 Y157.735 E0.00927
G1 X138.781 Y157.639 E0.00927
G1 X138.521 Y157.498 E0.00927
G1 X138.288 Y157.317 E0.00927
G1 X138.128 Y157.143 E0.00739
G1 X138.406 Y156.888 F10800.000
G1 F1200.000
G1 X138.259 Y156.672 E0.00820
G1 X138.165 Y156.458 E0.00731
G1 X138.108 Y156.232 E0.00731
G1 X138.089 Y156.000 E0.00731
G1 X138.108 Y155.768 E0.00731
G1 X138.165 Y155.542 E0.00731
G1 X138.259 Y155.328 E0.00731
G1 X138.386 Y155.133 E0.00731
G1 X138.544 Y154.962 E0.00731
G1 X138.728 Y154.818 E0.00731
G1 X138.910 Y154.720 E0.00647
G1 X139.152 Y154.632 E0.00808
G1 X139.383 Y154.593 E0.00737
G1 X139.617 Y154.593 E0.00731
G1 X139.846 Y154.632 E0.00731
G1 X140.067 Y154.707 E0.00731
G1 X140.272 Y154.818 E0.00731
G1 X140.456 Y154.962 E0.00731
G1 X140.596 Y155.113 E0.00647
G1 X140.741 Y155.326 E0.00808
G1 X140.835 Y155.542 E0.00737
G1 X140.892 Y155.768 E0.00731
G1 X140.911 Y156.000 E0.00731
G1 X140.892 Y156.232 E0.00731
G1 X140.835 Y156.458 E0.00731
G1 X140.741 Y156.672 E0.00731
G1 X140.614 Y156.867 E0.00731
G1 X140.456 Y157.038 E0.00731
G1 X140.272 Y157.182 E0.00731
G1 X140.090 Y157.280 E0.00647
G1 X139.848 Y157.368 E0.00808
G1 X139.617 Y157.407 E0.00737
G1 X139.383 Y157.407 E0.00731
G1 X139.154 Y157.368 E0.00731
G1 X138.933 Y157.293 E0.00731
G1 X138.728 Y157.182 E0.00731
G1 X138.544 Y157.038 E0.00731
G1 X138.446 Y156.932 E0.00453
G1 X138.147 Y156.928 F10800.000
G1 F8640.000
G1 X138.259 Y156.672 E-0.07412
G1 X138.165 Y156.458 E-0.05382
G1 X138.108 Y156.232 E-0.05382
G1 X138.089 Y156.000 E-0.05382
G1 X138.108 Y155.768 E-0.05382
G1 X138.165 Y155.542 E-0.05382
G1 X138.259 Y155.328 E-0.05383
G1 X138.386 Y155.133 E-0.05382
G1 X138.544 Y154.962 E-0.05382
G1 X138.728 Y154.818 E-0.05382
G1 X138.910 Y154.720 E-0.04765
G1 X139.152 Y154.632 E-0.05949
G1 X139.383 Y154.593 E-0.05427
G1 X139.557 Y154.593 E-0.04006
G1 E-0.04000 F2100.00000
G1 Z0.800 F10800.000
G1 X141.364 Y159.208
G1 Z0.200
G1 E0.80000 F2100.00000
G1 F1200.000
G1 X141.586 Y158.972 E0.01017
G1 X141.835 Y158.763 E0.01017
G1 X142.106 Y158.585 E0.01017
G1 X142.396 Y158.440 E0.01017
G1 X142.700 Y158.329 E0.01017
G1 X143.016 Y158.254 E0.01017
G1 X143.338 Y158.216 E0.01017
G1 X143.662 Y158.216 E0.01017
G1 X143.984 Y158.254 E0.01017
G1 X144.300 Y158.329 E0.01017
G1 X144.604 Y158.440 E0.01017
G1 X144.894 Y158.585 E0.01017
G1 X145.165 Y158.763 E0.01017
G1 X145.414 Y158.972 E0.01017
G1 X145.636 Y159.208 E0.01017
G1 X145.830 Y159.468 E0.01017
G1 X145.992 Y159.749 E0.01017
G1 X146.120 Y160.046 E0.01017
G1 X146.213 Y160.357 E0.01017
